!!!!SEGMENT: 061-1-BR.krn
!!!COM: Chopin, Fryderyk
!!!OTL: Polonaise-Fantaisie | POUR | PIANO
!!!OPS: Op. 61
!!!OCL: Louis Brandus
!!!NIFC-rismID: BRAK
!!!NIFC-shelfmark: PL-Wbfc 6012/n
!!!OMD: All°. maestoso.
!!!system-decoration: {(s1,s2)}
**kern	**fing	**kern	**fing	**dynam
*I"PIANO.	*	*	*	*
*part1	*	*part1	*	*part1
*staff2	*	*staff1	*	*S
*clefF4	*	*clefG2	*	*
*k[b-e-a-d-]	*	*k[b-e-a-d-]	*	*
*A-:	*	*A-:	*	*
*M3/4	*	*M3/4	*	*
*	*	*	*	*
=1	=1	=1	=1	=1
*^	*	*	*	*
!	!	!	!	!	!LO:DY:rj
4AA-\ 4AAA-\	4c-X< 4A-<	.	(</16a-KL	.	f
.	.	.	8.e-J)	.	.
*ped	*	*	*	*	*
2C-X\;< 2CC-X\	2ryy	.	2e-/;> 2c-X/ 2G-X</	.	.
.	.	.	(>4qqCC<\	.	.
.	.	.	4qqGG-<\	.	.
.	.	.	4qqC<\	.	p
.	.	.	4qqG-</	.	.
.	.	.	4qqB-</	.	.
.	.	.	4qqd-/	.	.
.	.	.	4qqf-X/	.	.
.	.	.	4qqe-/	.	.
.	.	.	4qqg-X/	.	.
.	.	.	4qqcc-X/	.	.
.	.	.	4qqdd-/	.	.
.	.	.	4qqff/	.	.
.	.	.	4qqee-/	.	.
.	.	.	4qqgg/	.	.
.	.	.	4qqccc/	.	.
.	.	.	4qqddd-/	.	.
.	.	.	4qqfff/	.	.
*	*	*	*8va	*	*
.	.	.	4qqeee-/	.	.
.	.	.	4qqggg/	.	.
.	.	.	4qqbbb-/	.	.
.	.	.	4qqdddd-/	.	.
.	.	.	4qqffff/	.	.
.	.	.	4qqeeee-\)	.	.
*	*	*	*X8va	*	*
*Xped	*	*	*	*	*
.	.	.	2qqr;>	.	.
!	!	!	!LO:TX:a:t=loco.	!	!
=2	=2	=2	=2	=2	=2
!	!	!	!	!	!LO:DY:rj
4GG-X\ 4GGG-X\	4B-< 4G-X<	.	(<16g-XKL	.	f
.	.	.	8.d-/J)	.	.
*ped	*	*	*	*	*
2BB--\;< 2BBB--\	2ryy	.	2d-/;> 2B--</ 2F-X</	.	.
.	.	.	(>4qqBBB-<\	.	.
.	.	.	4qqFF-X<\	.	.
.	.	.	4qqBB-<\	.	p
.	.	.	4qqF-</	.	.
.	.	.	4qqB--</	.	.
.	.	.	4qqd-X/	.	.
.	.	.	4qqe--X/	.	.
.	.	.	4qqd-/	.	.
.	.	.	4qqf-X/	.	.
.	.	.	4qqb--X/	.	.
.	.	.	4qqcc-X/	.	.
.	.	.	4qqee-/	.	.
.	.	.	4qqdd-/	.	.
.	.	.	4qqff/	.	.
.	.	.	4qqbb-/	.	.
.	.	.	4qqccc/	.	.
.	.	.	4qqeee-/	.	.
*	*	*	*8va	*	*
.	.	.	4qqddd-/	.	.
.	.	.	4qqfff/	.	.
.	.	.	4qqbbb-/	.	.
.	.	.	4qqcccc/	.	.
.	.	.	4qqeeee-/	.	.
.	.	.	4qqdddd-\)	.	.
*	*	*	*X8va	*	*
!	!	!	!LO:TX:a:t=loco	!	!
.	.	.	2qqr;>	.	.
*Xped	*	*	*	*	*
.	.	.	.	.	.
!!LO:LB:g=original
=3	=3	=3	=3	=3	=3
!	!	!	!	!	!LO:DY:rj
2F-X	2D- 2DD-	.	(>(<16f-XKL	.	f
.	.	.	8.c-XJ)	.	.
.	.	.	4B--<	.	.
4ryy	[>4FF-X	.	4A-< N[<4D-<	.	.
=4	=4	=4	=4	=4	=4
[>/2.D-N]	4.FF-X\]	.	8.G<L	.	.
.	.	.	16c-X<Jk 16A-<	.	.
.	.	.	N[>2B-< [>2G<	.	.
*	*Xtuplet	*	*	*	*
.	(>24DDn\LL	.	.	.	.
.	24EE-\	.	.	.	.
.	24GG-X\JJ	.	.	.	.
*	*tuplet	*	*	*	*
.	8.FF-\L	.	.	.	.
.	16EE-\Jk	.	.	.	.
=5	=5	=5	=5	=5	=5
!	!	!	!LO:TX:t=P:problem:2.G za 2B-/N] 2D-	!	!
!	!	!	!LO:N:vis=2.	!	!
2B-/N] 2D-/]	8.EE-\L	.	(>2G</])	.	.
.	16BBB-\Jk	.	.	.	.
.	4EE-\)	.	.	.	.
4rD	4rCC	.	4r<d	.	.
.	.	.	.	.	.
*v	*v	*	*	*	*
=6	=6	=6	=6	=6
!	!	!	!	!LO:DY:rj
2G	.	2g	.	p
4G-X	.	4g-X	.	.
=7	=7	=7	=7	=7
*	*	*^	*	*
4E-\ 4EE-\	.	(<16ee-KL)	4g-X 4e-	.	pp
.	.	8.b-J)	.	.	.
*ped	*	*	*	*	*
!LO:TX:b:t=P:problem:polnuty polaczone lukami	!	!	!LO:TX:t=P:problem:polnuty polaczone lukami	!	!
2G-X\;< 2D-\ 2GG-X\	.	2b-/;> 2g-X/ 2d-/ 2B-/	2ryy	.	.
.	.	(>4qqGGG-<\	.	.	.
.	.	4qqGG<\	.	.	.
.	.	4qqD-<\	.	.	.
.	.	4qqG</	.	.	.
.	.	4qqA-</	.	.	.
.	.	4qqc-X</	.	.	.
.	.	4qqB-</	.	.	.
.	.	4qqd-/	.	.	.
.	.	4qqg-/	.	.	.
.	.	4qqa-/	.	.	.
.	.	4qqcc-X/	.	.	.
.	.	4qqb-/	.	.	.
.	.	4qqdd-/	.	.	.
.	.	4qqgg/	.	.	.
.	.	4qqaa-/	.	.	.
.	.	4qqccc/	.	.	.
*	*	*8va	*	*	*
.	.	4qqbb-/	.	.	.
.	.	4qqddd-/	.	.	.
.	.	4qqggg/	.	.	.
.	.	4qqaaa-/	.	.	.
.	.	4qqcccc	.	.	.
.	.	4qqbbb-\)	.	.	.
*	*	*X8va	*	*	*
.	.	2qqr;>	.	.	.
*Xped	*	*	*	*	*
.	.	.	.	.	.
!!LO:LB:g=original
=8	=8	=8	=8	=8	=8
4D-\ 4DD-\	.	(<16dd-/KL	4f\ 4d-\	.	.
.	.	8.a-J)	.	.	pp
*ped	*	*	*	*	*
!LO:TX:b:t=P:problem:polnuty polaczone lukami	!	!	!LO:TX:t=P:problem:polnuty polaczone lukami	!	!
2F-X\;< 2C-X\ 2FF-X\	.	2a-/;> 2f-X/ 2c-X/ 2A-</	2ryy	.	.
.	.	(>4qqFFF-X<\	.	.	.
.	.	4qqFF<\	.	.	.
.	.	4qqC<\	.	.	.
.	.	4qqF</	.	.	.
.	.	4qqG-X</	.	.	.
.	.	4qqB--X</	.	.	.
.	.	4qqA-</	.	.	.
.	.	4qqc-/	.	.	.
.	.	4qqf-/	.	.	.
.	.	4qqg/	.	.	.
.	.	4qqb--X/	.	.	.
.	.	4qqa-/	.	.	.
.	.	4qqcc/	.	.	.
.	.	4qqff/	.	.	.
.	.	4qqgg/	.	.	.
.	.	4qqbb-/	.	.	.
*	*	*8va	*	*	*
.	.	4qqaa-/	.	.	.
.	.	4qqccc/	.	.	.
.	.	4qqfff/	.	.	.
.	.	4qqggg/	.	.	.
.	.	4qqbbb-/	.	.	.
.	.	4qqaaa-\)	.	.	.
*	*	*X8va	*	*	*
.	.	2qqrb;>	.	.	.
*Xped	*	*	*	*	*
.	.	.	.	.	.
!	!	!	!LO:TX:a:t=loco.	!	!
=9	=9	=9	=9	=9	=9
!	!	!	!	!	!LO:DY:rj
2AA-\ 2AAA-\	.	(>(<16cc-XKL	2c-X	.	p
.	.	8.g-XJ)	.	.	.
.	.	4f-X	.	.	.
[>4C-X\ [<4CC-X\	.	4e- [>4A-< 4E-<	4rAAyy	.	.
*	*	*v	*v	*	*
=10	=10	=10	=10	=10
!LO:S:s=1:note:problem:note-level slur	!	!	!	!
(>4.C-X] 4.CC-X]	.	8.dnL 8.A-<] 8.F<	.	.
.	.	.	.	>
.	.	16g-XJk 16e- 16A-<	.	.
.	.	4.f) 4.d 4.A-<	.	.
!LO:TUP:a	!	!	!	!
24AAnLL 24AAAn	.	.	.	]
24BB- 24BBB-	.	.	.	.
24D-JJ 24DD-	.	.	.	.
!LO:S:s=1:note:problem:note-level slur	!	!	!	!
!	!	!LO:TX:b:t=cres _:problem:dynamics with extention lines	!	!
!	!	!	!	!LO:HP:t=cres:ext=ud
[>4C-) [<4CC-	.	.	.	<
.	.	(>8e- 8B--< 8G-X<	.	.
!!LO:LB:g=original
=11	=11	=11	=11	=11
*	*	*	*	*^
!LO:S:s=1:note:problem:note-level slur	!	!	!	!	!
(>4.C-X] 4.CC-X]	.	8.dnL 8.A-< 8.F<	.	.	.
.	.	.	.	.	>
.	.	16g-XJk 16e- 16A-<	.	.	.
.	.	4.f 4.d 4.A-<	.	.	.
.	.	.	.	.	]
!LO:TUP:a	!	!	!	!	!
24AAnLL 24AAAn	.	.	.	.	.
24BB- 24BBB-	.	.	.	.	.
24D-JJ 24DD-	.	.	.	.	.
(>4C-) (<4CC-	.	.	.	.	.
!	!	!LO:N:vis=4	!	!	!
.	.	8f#X 8d#X 8An<	.	[	.
*	*	*	*	*v	*v
=12	=12	=12	=12	=12
*^	*	*	*	*
!LO:N:n=2:vis=8	!	!	!	!	!
8.BB\ 8.BBBn\))	(>4.BBn/	.	8.g#XL 8.en 8.G#X<	.	<
16F#X	.	.	16anJk 16d#X	.	.
4.An	.	.	4.f#X 4.d#	.	.
.	.	.	.	.	[
.	16C#XLL	.	.	.	.
.	16CnJJ	.	.	.	.
.	[>4BB)	.	.	.	.
8ryy	.	.	8g# 8e 8G#<	.	.
=13	=13	=13	=13	=13	=13
8.F#XL	(>4.BBnX]	.	8.anL 8.d#X	.	.
16AnJk	.	.	16cc#XJk 16d#	.	.
8.G#XL	.	.	8.bnL 8.en	.	.
.	16C#XLL	.	.	.	.
16AJk	16CnJJ	.	16f#XJk 16d#	.	.
8.G#L	[>4BB)	.	8.g#XL 8.e	.	.
16A#XJk 16Gn	.	.	16cc#Jk 16e	.	.
=14	=14	=14	=14	=14	=14
*	*	*	*^	*	*
8.BnL 8.F#X	2.BBnX]	.	8.f#XL 8.d#X	4ryy	.	.
16E#XJk	.	.	16g#XJk 16dn	.	.	.
.	.	.	.	.	.	>
4F#	.	.	12bnL	4c#X	.	.
.	.	.	12an	.	.	.
.	.	.	12g#J	.	.	.
4An	.	.	8.f#L	4d#X	.	.
.	.	.	16g#Jk	.	.	.
*	*	*	*v	*v	*	*
!!LO:LB:g=original
=15	=15	=15	=15	=15	=15
4.G#X	[>2.BBn	.	4en	.	.
.	.	.	4Bn)	.	]
!	!	!	!	!	!LO:HP:b=2
(>8D#XL	.	.	.	.	<
8.En	.	.	(>4g#X 4e	.	.
16c#XJk	.	.	.	.	[[
=16	=16	=16	=16	=16	=16
*	*	*	*^	*	*
8.F#XL	2.BBnX]	.	2an	2en	.	[
16G#XJk	.	.	.	.	.	.
!LO:TUP:b	!	!	!	!	!	!
12BnL	.	.	.	.	.	.
12An	.	.	.	.	.	.
12G#J	.	.	.	.	.	.
8.F#L	.	.	8.aL	4d#X	.	.
16G#Jk	.	.	16g#XJk	.	.	.
*v	*v	*	*	*	*	*
=17	=17	=17	=17	=17	=17
*	*	*	*^	*	*
4En	.	4.g#X)	4en	2Bn\	.	.
4BBn/)	.	.	4d#X	.	.	<
.	.	(>8a#XL	.	.	.	.
(>4GG#X 4GGG#X	.	8.b	4g# 4d#	4ryy	.	.
.	.	16eenJk	.	.	.	[
*	*	*	*v	*v	*	*
=18	=18	=18	=18	=18	=18
4C#X 4CC#X	.	8.a#XL	4g#X 4en	.	.
.	.	16bnJk	.	.	.
4AA#X 4AAA#X	.	12dd#XL	4g# 4e	.	.
.	.	12cc#X	.	.	.
.	.	12bJ	.	.	.
4D#X 4DD#X	.	8.a#L	4f##X 4c	.	.
.	.	16bJk	.	.	.
*	*	*v	*v	*	*
=19	=19	=19	=19	=19
!LO:S:s=1:note:problem:note-level slur	!	!	!	!
4.GG#X) 4.GGG#X	.	4g#X 4en 4c#X	.	>
.	.	8d#X) 8Bn	.	]
(>8AA#XL	.	8r	.	pp
8.BBn	.	4r	.	.
16EnJk	.	.	.	.
!!LO:PB:g=original
=20	=20	=20	=20	=20
*^	*	*	*	*
!LO:TX:t=P:problem:brak zakonczenia luku	!	!	!	!	!
!	!	!	!LO:TX:b:t=rallent.	!	!
8.AA#XL)	2ryy	.	4r	.	.
16BBnJk	.	.	.	.	.
12D#XL	.	.	4r	.	.
12C#X	.	.	.	.	.
12BBJ	.	.	.	.	.
8.AA#L	4DD#X	.	(>4d#X 4c#X 4F##X	.	.
16BB#XJ	.	.	.	.	.
=21	=21	=21	=21	=21	=21
4rAyy	4GG#X\	.	4d#X 4B#X 4F#X	.	.
2En	2CC#X	.	4c#X</	.	.
.	.	.	4An</	.	.
*v	*v	*	*	*	*
=22	=22	=22	=22	=22
!	!	!LO:TX:a:B:t=a tempo giusto.	!	!
*ped	*	*	*	*
8DD#X\	.	8F##X<) 8AA#X<	.	.
!	!	!	!	!LO:DY:rj
16e-X'>LL 16E-X'>	.	8r	.	f
16e-'>JJ 16E-'>	.	.	.	.
8e-'>L 8E-'>	.	4r	.	.
8e-'>J 8E-'>	.	.	.	.
8e-^>L 8E-	.	4r	.	.
16e-'>L 16E-'>	.	.	.	.
16e-'>JJ 16E-'>	.	.	.	.
=23	=23	=23	=23	=23
8e-^>L 8E-	.	2.rdd	.	.
16e-'>L 16E-'>	.	.	.	.
16e-'>JJ 16E-'>	.	.	.	.
8e-'>L 8E-'>	.	.	.	>
8e-'> 8E-'>	.	.	.	.
8e-'> 8E-'>	.	.	.	.
8e-'>J 8E-'>	.	.	.	.
!!LO:LB:g=original
=24	=24	=24	=24	=24
8e-L 8E-	.	4r	.	.
*Xped	*	*	*	*
8e- 8d- 8F	.	.	.	.
8e- 8d- 8G	.	(>4b-	.	<
8e- 8d- 8E-	.	.	.	.
8e- 8d- 8A-	.	4cc	.	.
8e-J 8d- 8F	.	.	.	.
=25	=25	=25	=25	=25
*^	*	*	*	*
8ryy	8e-L 8d- 8G	.	4.b-	.	.
16e-LL	8d- 7F	.	.	.	.
16e-JJ	.	.	.	.	.
2ryy	8e- 8d- 8G	.	.	.	.
.	8e- 8E-	.	8ccL	.	.
.	8c 8A-	.	8a-	.	.
.	8B-J 8A- 8D-	.	8ffJ)	.	[
*v	*v	*	*	*	*
=26	=26	=26	=26	=26
*ped	*	*	*	*
8d-\ 8G\ 8E-\	.	(>8.b-L	.	.
8EE-/	.	.	.	.
.	.	16ccJk	.	.
!	!	!LO:TUP:a	!	!
8r	.	12ee-L	.	>
.	.	12dd-	.	.
8e-L 8E-	.	.	.	.
.	.	12ccJ	.	.
*Xped	*	*	*	*
8e- 8d- 8G	.	8b-L	.	.
8e-J 8E-	.	16r	.	.
.	.	16ccJ	.	.
=27	=27	=27	=27	=27
*^	*	*	*	*
*	*	*	*	*	*^
*ped	*	*	*	*	*	*
2ryy	8AA-L	.	2a-	.	.	.
.	8e- 8c 8E-	.	.	.	.	.
*Xped	*	*	*	*	*	*
.	8e- 8c 8F	.	.	.	.	.
!	!	!	!	!	!	!LO:HP:b=2
.	8e- 8c 8G	.	.	.	.	<
8ryy	8e- 8c 8A-	.	4e-)	.	]	.
(<8B-	8GG-XJ	.	.	.	.	[[
*v	*v	*	*	*	*	*
*	*	*	*	*v	*v
=28	=28	=28	=28	=28
!LO:TX:t=P:problem:luk od 8qqAn/) do 2cc	!	!	!	!
8qAn/)	.	.	.	[
*ped	*	*	*	*
8FFL	.	(>2cc	.	.
8f 8e- 8G	.	.	.	.
*Xped	*	*	*	*
8f 8e- 8Any	.	.	.	.
8f 8F	.	.	.	<
8f 8d- 8B-	.	4dd-	.	.
8fJ 8G	.	.	.	.
!!LO:LB:g=original
=29	=29	=29	=29	=29
*^	*	*	*	*
8ryy	8fL 8e- 8An	.	4.cc	.	.
16fLL	8e- 8G	.	.	.	.
16fJJ	.	.	.	.	.
2ryy	8f 8e- 8A	.	.	.	.
.	8f 8F	.	8dd-L	.	.
.	8d- 8B-	.	8b-	.	.
.	8cJ 8B- 8E-	.	8gg-XJ	.	[
*v	*v	*	*	*	*
=30	=30	=30	=30	=30
*ped	*	*	*	*
8e-\ 8An\ 8F\	.	8.ccL	.	>
8FF/	.	.	.	.
.	.	16dd-Jk	.	.
!	!	!LO:TUP:a	!	!
8r	.	12ffL	.	.
.	.	12ee-	.	.
8fL 8F	.	.	.	.
.	.	12dd-J	.	.
*Xped	*	*	*	*
8f 8e- 8An	.	8ccL	.	.
8fJ 8F	.	16r	.	.
.	.	16dd-J	.	]
=31	=31	=31	=31	=31
*ped	*	*	*	*
8BB-/L 8BBB-/	.	4b-	.	<
8d- 8B- 8F	.	.	.	.
*clefG2	*	*	*	*
8f 8d- 8B-	.	4..bb-	.	[
8b- 8f 8d-	.	.	.	.
8dd-J 8f	.	.	.	.
*Xped	*	*	*	*
8r	.	.	.	.
.	.	16aa- 16ee- 16cc	.	.
*clefF4	*	*	*	*
=32	=32	=32	=32	=32
*	*	*^	*	*
*ped	*	*	*	*	*
8EE-\L	.	8aa-L 8ee- 8cc	2ryy	.	.
8e- 8E-	.	8gg 8dd- 8b-	.	.	.
*clefG2	*	*	*	*	*
*Xped	*	*	*	*	*
8cc 8g 8d-	.	8ccc 8gg 8dd-	.	.	.
8b- 8g 8d-	.	8bb- 8gg 8dd-	.	.	.
*clefF4	*	*	*	*	*
*ped	*	*	*	*	*
8F 8FF	.	8.aa-	8ryy	.	.
8fJ 8d- 8A-	.	.	8dd- 8a-	.	.
*Xped	*	*	*	*	*
.	.	16ffJk)	.	.	.
=33	=33	=33	=33	=33	=33
*ped	*	*	*	*	*
8CL 8CC	.	(>8ffL 8cc 8a-	2ryy	.	.
8e- 8c 8G	.	8ee- 8cc 8g	.	.	.
8a-> 8e-> 8c>	.	8aa- 8ee- 8cc	.	.	.
*Xped	*	*	*	*	*
8g>J 8e-> 8c>	.	8gg 8ee- 8cc	.	.	.
*ped	*	*	*	*	*
8D-L 8DD-	.	8.ff	8ryy	.	.
8d-J 8A-	.	.	8a- 8f	.	.
*Xped	*	*	*	*	*
.	.	16dd-Jk	.	.	.
*	*	*v	*v	*	*
!!LO:LB:g=original
=34	=34	=34	=34	=34
*ped	*	*	*	*
8AA-\L 8AAA-\	.	8dd-L 8a- 8f	.	.
*Xped	*	*	*	*
8cJ 8A- 8E-	.	8ccJ) 8a- 8e-	.	.
*ped	*	*	*	*
8FF\L	.	8r	.	.
8dnJ 8F	.	16r	.	.
*Xped	*	*	*	*
.	.	(>16ccKL 16a-	.	<
*ped	*	*	*	*
8GG\L	.	8cc	.	.
*Xped	*	*	*	*
8dJ 8G	.	8bnJ 8g 8f	.	.
=35	=35	=35	=35	=35
8AnL 8G	.	8ccL 8g 8f	.	.
8BnJ 8G	.	8ddnJ) 8g 8f	.	.
*ped	*	*	*	*
8CL	.	8r	.	[
8fJ 8A-X	.	16r	.	>
*Xped	*	*	*	*
.	.	(>/16ffKL 16bn/ 16a-/	.	.
*ped	*	*	*	*
8CC\L	.	8ff 8b 8a-	.	.
*Xped	*	*	*	*
8e-J 8G	.	8ee-J) 8cc 8g	.	.
=36	=36	=36	=36	=36
*ped	*	*	*	*
8DD-L	.	(>8ee-/L 8cc/ 8an/ 8g-X/	.	]
8d- 8B-	.	8dd- 8b- 8f	.	.
8gn> 8d- 8B-	.	8ggn	.	>
*Xped	*	*	*	*
8f>J 8d- 8B-	.	8ff 8a-X	.	.
*ped	*	*	*	*
8EE-\L	.	8ee-	.	.
*Xped	*	*	*	*
8cJ 8G	.	8ccJ 8g- 8e-	.	]]
=37	=37	=37	=37	=37
*	*	*^	*	*
*	*	*	*	*	*^
*ped	*	*	*	*	*	*
8FF\L	.	4..a-)	8rc	.	.	.
*Xped	*	*	*	*	*	*
8A-J 8F	.	.	(>8cL	.	.	.
*ped	*	*	*	*	*	*
8FF-X\L	.	.	8d-	.	.	<
*Xped	*	*	*	*	*	*
8A-J 8F-X	.	.	8dnJ) 8B-	.	.	.
.	.	(>16a-	.	.	.	.
*	*	*Xtuplet	*	*	*	*
*ped	*	*	*	*	*	*
8EE-\L	.	12b-L 12a- 12e- 12B-	4ryy	.	.	.
!	!	!	!LO:TX:b:t=cres _:problem:dynamics with extention lines	!	!	!
!	!	!	!	!	!LO:HP:t=cres:ext=ud	!
.	.	12.cc 12.c	.	.	<	.
*Xped	*	*	*	*	*	*
8B-J 8E-	.	.	.	.	.	.
.	.	24dd-XJk 24g 24d-X	.	.	.	[[
*	*	*tuplet	*	*	*	*
*	*	*	*	*	*v	*v
=38	=38	=38	=38	=38	=38
*ped	*	*	*	*	*
!	!	!LO:S:s=1:note:problem:note-level slur	!	!	!
8BB-L 8BBB-	.	[>2dd- (<2d-)	8rg	.	.
16rAA	.	.	8gL 8f	.	.
16AAnJk 16AAAny	.	.	.	.	.
*Xped	*	*	*	*	*
!LO:TUP:b	!	!	!	!	!
(<12BB-L 12BBB-	.	.	8g 8f	.	.
12D- 12DD-	.	.	.	.	.
.	.	.	8a- 8f	.	.
12cJ 12C)	.	.	.	.	.
!	!	!	!LO:TX:t=P:8a- 8f przed 8.dd- 8.d-:problem	!	!
4B-/ 4BB-/	.	8.dd-L] 8.d-	8a- 8f)	.	.
.	.	.	8gJ 8f	.	.
.	.	16b-Jk 16B-	.	.	.
!!LO:LB:g=original
=39	=39	=39	=39	=39	=39
*ped	*	*	*	*	*
8.D-\L 8.DD-\	.	[>2ff (<2f	8rb	.	.
.	.	.	8b-L 8g	.	.
16CJk 16CC	.	.	.	.	.
*Xped	*	*	*	*	*
!LO:TUP:a	!	!	!	!	!
(>12D-L 12DD-	.	.	8b- 8g	.	.
12G 12GG	.	.	.	.	.
.	.	.	8cc 8g	.	.
12e-J 12E-)	.	.	.	.	.
!	!	!	!LO:TX:t=P:8cc 8g przed 8.ff 8.f:problem	!	!
4d- 4D-	.	8.ffL] 8.f	8cc 8g)	.	.
.	.	.	8b-J 8g	.	.
.	.	16eenJk 16en	.	.	.
=40	=40	=40	=40	=40	=40
(<8.DD-L^> 8.DDD-	.	4.een 4.en	8rb	.	[f
.	.	.	8b-L 8g	.	.
16CCJk 16CCC	.	.	.	.	.
*ped	*	*	*	*	*
8CC 8CCC)	.	.	8b-J 8g	.	.
16r	.	16r	4.ryy	.	.
16a-LL 16d- 16B-	.	(>16aa- 16b-	.	.	>
8a-J 8d- 8B-	.	8aa-L 8b-	.	.	.
*Xped	*	*	*	*	*
8gJ 8d- 8B-	.	8ggJ 8b-	.	.	]
=41	=41	=41	=41	=41	=41
(>8.D-L^> 8.DD-	.	4ff 4f	8rb	.	.
.	.	.	4b- 4g	.	.
16CJk 16CC	.	.	.	.	.
*ped	*	*	*	*	*
8C 8CC)	.	8een) 8en	.	.	.
16r	.	16r	4.ryy	.	.
16a- 16d- 16B-	.	(>16aa- 16b-	.	.	>
8a-L 8d- 8B-	.	8aa-L 8b-	.	.	.
*Xped	*	*	*	*	*
8gJ 8d- 8B-	.	8ggJ 8b-	.	.	]
=42	=42	=42	=42	=42	=42
*^	*	*	*	*	*
*ped	*	*	*	*	*	*
!LO:TX:t=P:problem:2D- polaczone lukiem z 8DD-\	!	!	!	!	!	!
!	!	!	!	!LO:TX:b:t=stringendo.	!	!
!	!LO:N:n=1:vis=2	!	!	!	!	!
8rA	8D-\ 8DD-	.	4ff 4f	8rb	.	.
4B- 4G	8rFFFyy	.	.	4b- 4g	.	.
*Xped	*	*	*	*	*	*
.	4rFFFyy	.	4ff-X 4f-X	.	.	]
4B- 4G	.	.	.	4b- 4g	.	.
*ped	*	*	*	*	*	*
.	4D-\	.	4ee- 4e-	.	.	.
*Xped	*	*	*	*	*	*
8B-/J 8G/	.	.	.	8b- 8g	.	.
=43	=43	=43	=43	=43	=43	=43
*	*	*	*	*^	*	*
*	*	*	*	*	*	*	*^
*ped	*	*	*	*	*	*	*	*
8DnL	4ryy	.	4dd- 4dn	8rg	4rGyy	.	.	.
*Xped	*	*	*	*	*	*	*	*
8B-J 8G	.	.	.	4b- 4g	.	.	.	.
*ped	*	*	*	*	*	*	*	*
!	!	!	!	!	!	!	!LO:HP:b=2	!LO:HP:a
!	!	!	!LO:N:n=2:vis=2	!	!	!	!	!
!LO:TX:t=P:8.E- za 2E-:problem	!	!	!	!	!	!	!	!
8.E-L	2E-)	.	4dd-X 4d-X	.	[<2d-X\	.	>	>
.	.	.	.	4.g	.	.	.	.
16fk	.	.	.	.	.	.	.	.
8f	.	.	8.dd-L	.	.	.	.	.
(<[>8e-J	.	.	.	.	.	.	.	.
*Xped	*	*	*	*	*	*	*	*
.	.	.	16ccJk	.	.	.	]	]
*v	*v	*	*	*	*	*	*	*
*	*	*	*v	*v	*	*	*
*	*	*	*	*	*v	*v
!!LO:PB:g=original
=44	=44	=44	=44	=44	=44
!	!	!LO:TX:t=P:w źródle ligatura kończy się nad nutą:problem	!	!	!
8e-L] 8E-)	.	4cc	8d-]	.	.
!	!	!LO:TX:B:b:t=m.v.	!	!	!
8e- 8d- 8F	.	.	8rcyy	.	.
8e- 8d- 8G	.	4b-/	2rcyy	.	.
8e- 8d- 8E-	.	.	.	.	.
8e- 8d- 8A-	.	4cc/	.	.	.
8e-J 8d- 8F	.	.	.	.	.
*	*	*v	*v	*	*
=45	=45	=45	=45	=45
*^	*	*	*	*
8rbyy	8e-L 8d- 8G	.	4.b-	.	.
16e-LL	8d- 8F	.	.	.	<
16e-JJ	.	.	.	.	.
2rbyy	8e- 8d- 8G	.	.	.	.
.	8e- 8E-	.	8ccL	.	.
.	8c 8A-	.	8a-	.	.
.	8B-J 8A- 8D-	.	8ffJ	.	.
*v	*v	*	*	*	*
=46	=46	=46	=46	=46
8r	.	8.b-L	.	.
*ped	*	*	*	*
8EE-	.	.	.	.
.	.	16ccJk	.	[
!	!	!LO:TUP:a	!	!
8r	.	12ee-L	.	.
.	.	12dd-	.	.
8e-L 8E-	.	.	.	.
.	.	24r	.	.
.	.	24ccJk	.	.
*Xped	*	*	*	*
8e- 8d- 8G	.	8b-L)	.	.
8e-J 8E-	.	16r	.	.
.	.	(>16ccJk	.	.
=47	=47	=47	=47	=47
*ped	*	*	*	*
8EE-L	.	2a-	.	.
8e- 8c 8E-	.	.	.	.
*Xped	*	*	*	*
8e- 8c 8F	.	.	.	.
8e- 8c 8G	.	.	.	.
*ped	*	*	*	*
8e- 8c 8A-	.	4e-)	.	.
*Xped	*	*	*	*
8g-XJ 8c 8B-	.	.	.	.
=48	=48	=48	=48	=48
*	*	*	*	*^
*ped	*	*	*	*	*
8EE-L	.	(>2cc	.	.	<
8f 8e- 8Gn	.	.	.	.	.
*Xped	*	*	*	*	*
8f 8e- 8An	.	.	.	.	.
!LO:TX:a:t=cres _:problem:dynamics with extention lines	!	!	!	!	!
!	!	!	!	!LO:HP:t=cres:ext=ud	!
8f 8F	.	.	.	<	.
8f 8d- 8B-	.	4dd-	.	.	.
8fJ 8G	.	.	.	.	.
!!LO:LB:g=original
=49	=49	=49	=49	=49	=49
*^	*	*	*	*	*
8rbyy	8fL 8e- 8An	.	4.cc	.	.	.
16fLL	8e- 8G	.	.	.	.	.
16fJJ	.	.	.	.	.	.
2rbyy	8f 8e- 8A	.	.	.	.	.
.	8f 8F	.	8dd-L	.	.	.
.	8f 8d- 8B-	.	8b-	.	.	.
.	8cJ 8B- 8E-	.	8gg-XJ	.	.	[
*v	*v	*	*	*	*	*
*	*	*	*	*v	*v
=50	=50	=50	=50	=50
*ped	*	*	*	*
8EE-	.	8.ccL	.	.
4f 4F	.	.	.	.
.	.	16dd-Jk	.	.
!	!	!LO:TUP:a	!	!
.	.	12ffL	.	.
.	.	12ee-	.	.
8fL 8F	.	.	.	.
.	.	12dd-J	.	.
8f 8e- 8An	.	8ccL	.	.
*Xped	*	*	*	*
8fJ 8F	.	8ffJ	.	.
=51	=51	=51	=51	=51
*	*	*^	*	*
*ped	*	*	*	*	*
8EE-	.	8.ddnL	4cc-X	.	.
4a- 4A-	.	.	.	.	.
.	.	16ee-Jk	.	.	.
*	*	*Xtuplet	*	*	*
.	.	12gg/L 12ee-/	2rcccyy	.	.
.	.	12ff 12dd	.	.	.
8a-L 8A-	.	.	.	.	.
.	.	12ee-J 12cc-	.	.	.
*	*	*tuplet	*	*	*
8a- 8c-X	.	8dd/L 8f/	.	.	.
*Xped	*	*	*	*	*
8a-J 8A-	.	8ggJ) 8ee-	.	.	.
*	*	*v	*v	*	*
=52	=52	=52	=52	=52
*ped	*	*	*	*
8E-	.	(>16ffLL 16ddn	.	.
.	.	16ee- 16cc-X	.	.
4a-^> 4A-	.	16dd 16f	.	.
.	.	16ggJJ 16ee-	.	.
.	.	16ffLL 16dd	.	.
.	.	16ee- 16cc-	.	.
8a-L 8A-	.	16dd 16f	.	.
.	.	16ee-JJ 16cc-	.	.
*clefG2	*	*	*	*
8cc-XJ 8dn	.	16ee#XLL 16cc#X	.	.
.	.	16ff 16dd	.	.
*Xped	*	*	*	*
8r	.	16ff#X 16dd#X	.	.
.	.	16ggJJ 16ee-y	.	.
!!LO:LB:g=original
=53	=53	=53	=53	=53
8r	.	16aa-LL 16ff	.	.
.	.	16gg 16ee-	.	.
8a-L (<8c-X	.	16ff 16ddn	.	.
.	.	16bb-JJ 16gg	.	.
8cc-X 8dn	.	16aa-LL 16ff	.	.
.	.	16gg 16ee-	.	.
8a-J 8c-	.	16ff 16dd	.	.
.	.	16ff#XJJ 16dd#X	.	.
8ddn/ 8f/)	.	16ggLL 16een	.	.
.	.	16aa- 16ffny	.	.
8r	.	16aan 16ff#X	.	.
.	.	16bb-JJ 16gg	.	.
=54	=54	=54	=54	=54
8r	.	16ccc-XLL 16aa-	.	.
.	.	16bb- 16gg	.	.
(<8cc-XL 8dn	.	16aa- 16ff	.	.
.	.	16eee-JJ 16ccc-	.	.
8dd-J 8f)	.	16dddnLL 16bb-	.	.
.	.	16ccc- 16aa-	.	.
8r	.	16bb- 16gg	.	.
.	.	16aa-JJ 16ff	.	.
4r	.	16bb-LL 16gg	.	.
.	.	16aa- 16ff	.	.
.	.	16gg 16ee-	.	.
.	.	16ffJJ 16dd-	.	.
*clefF4	*	*	*	*
=55	=55	=55	=55	=55
*ped	*	*	*	*
16r	.	16ccc-XLL) 16aa-	.	.
(>16GLL	.	(>16ggg 16eee-	.	.
16A-	.	16fff 16dddn	.	.
16c-XJJ	.	16eee-JJ 16ccc-	.	.
*clefG2	*	*	*	*
16dn\LL	1	16dddLL 16bb-	.	.
16f	4	16ccc- 16aa-	.	.
16ddny	1	16bb- 16gg	.	.
16dJJ	5	16ccc-JJ 16aa-	.	.
8ff)	1	16.ddd-XLL 16.bb-	.	.
.	.	32ccc-JJk 32aa-	.	.
!	!	!LO:TUP:a	!	!
8r	.	24ccc-LL 24aa-	.	.
*Xped	*	*	*	*
.	.	24bb- 24gg	.	.
.	.	24aa-JJ 24ff	.	[
*clefF4	*	*	*	*
!!LO:LB:g=original
=56	=56	=56	=56	=56
*ped	*	*	*	*
!	!	!	!	!LO:DY:rj
8E-L 8EE-	.	8bb-L 8gg	.	ff
*Xped	*	*	*	*
8gJ 8e- 8B- 8G	.	8eee-J 8ee-	.	.
*ped	*	*	*	*
8D-L 8DD-	.	8fff-X 8ff-X	.	.
*Xped	*	*	*	*
8a--J 8f-X 8B--	.	4bb-- 4b--	.	.
*ped	*	*	*	*
8CL 8CC	.	.	.	.
*Xped	*	*	*	*
8a--J 8e- 8B--	.	[>8eee- [<8ee-	.	.
=57	=57	=57	=57	=57
*ped	*	*	*	*
8D-L 8DD-	.	8eee-] 8ee-]	.	.
16a--L 16f-X 16B--	.	4fff-X 4ff-X	.	.
16a--JJ 16f- 16B--	.	.	.	.
8a--L 8f- 8B--	.	.	.	.
*Xped	*	*	*	*
8a--J 8f- 8B--	.	4bb-- 4b--y	.	.
*ped	*	*	*	*
8CL	.	.	.	.
*Xped	*	*	*	*
8gJ 8e- 8B--	.	[>8eee- [<8ee-	.	.
=58	=58	=58	=58	=58
*ped	*	*	*	*
8CL	.	8eee-] 8ee-]	.	.
16g-XL 16B--	.	4dddn 4ddn	.	.
*Xped	*	*	*	*
16g-JJ 16A-	.	.	.	.
*ped	*	*	*	*
8g-L 8A-	.	.	.	.
*Xped	*	*	*	*
8g-J 8A-	.	4aa- 4a-	.	.
*ped	*	*	*	*
8C-XL	.	.	.	.
*Xped	*	*	*	*
8fJ 8A-	.	[>8ddd-X [<8dd-X	.	.
=59	=59	=59	=59	=59
*ped	*	*	*	*
8BB-L	.	8ddd-] 8dd-]	.	.
16enL 16A-	.	4ccc 4cc	.	.
*Xped	*	*	*	*
16eJJ 16G	.	.	.	.
8eL 8G-X	.	.	.	.
16eL 16G-	.	4gg-X 4g-X	.	.
16e-XJJ 16G-	.	.	.	.
8BB--L	.	.	.	.
8e-XJ 8c-X 8G-	.	8ccc-X 8cc-X)	.	.
!!LO:LB:g=original
=60	=60	=60	=60	=60
*ped	*	*	*	*
8AA-L	.	(>8.ccc-XL 8.cc-X	.	.
8f-XJ 8c-X 8F-X	.	.	.	.
.	.	16bb-Jk 16b-	.	.
!	!	!LO:TUP:a	!	!
8r	.	24bb--LL 24b--	.	.
.	.	24aa- 24a-	.	.
.	.	24gg 24g	.	.
8c-L 8F-	.	24gg-X 24g-X	.	.
*Xped	*	*	*	*
.	.	24ff 24f	.	.
.	.	24ff-XJJ 24f-X	.	.
8AA-	.	8ee-\L) 8e-\	.	.
8B-J 8Fn	.	[>8ddnJ [<8dn	.	.
=61	=61	=61	=61	=61
*	*	*^	*	*
8GG^>\L	.	(>8ddnX\L] 8dnX\]	2rcccyy	.	.
8B- 8E-J	.	8dd-X 8d-X	.	.	<
*ped	*	*	*	*	*
8AA-\L	.	8cc 8c	.	.	.
*Xped	*	*	*	*	*
.	.	8qqa-/	.	.	.
8c 8E-J	.	8aa-J) 8a-	.	.	.
8FF\L	.	(>8.a-/L 8.A-/	8reyy	.	.
(>8FF-XJ	.	.	8dn\	.	[
.	.	16b-Jk 16B-	.	.	.
=62	=62	=62	=62	=62	=62
*ped	*	*	*	*	*
8EE-\L)	.	[>2b-^<) [<2B-	8re	.	.
8E-	.	.	8gL 8e-	.	.
!	!	!	!	!	!LO:HP:b=2
8E-	.	.	8g 8e-	.	<
*Xped	*	*	*	*	*
8Dn	.	.	8a- 8f-X	.	.
8E-	.	8.b-L] 8.B-]	8g 8e-	.	.
16F-XJk	.	.	16a-Jk 16dn	.	[
!	!	!LO:TX:t=P:w źródle 32r za 16r:problem	!	!	!
16r;>	.	32r;>	16rB;>	.	.
.	.	32b-Jkk 32B-	.	.	.
=63	=63	=63	=63	=63	=63
*ped	*	*	*	*	*
(>8EE-\L	.	[>2b-^< [<2B-	8re	.	.
8E-	.	.	8gL 8e-	.	.
!	!	!	!	!	!LO:HP:b=2
.	.	.	.	.	<
8E-	.	.	8g 8e-	.	.
*Xped	*	*	*	*	*
8Dn	.	.	8a- 8f-X	.	.
8E-	.	8.b-L] 8.B-]	8g 8e-	.	.
16F-XJk)	.	.	16a-Jk) 16dn	.	[
!	!	!LO:TX:t=P:w źródle 32r za 16r:problem	!	!	!
16r;>	.	32r;>	16rB;>	.	.
.	.	32b-Jkk 32B-	.	.	.
!!LO:PB:g=original
=64	=64	=64	=64	=64	=64
!	!	!	!	!	!LO:DY:rj
(>2E-	.	(>4b- 4g 4e-	2B-	.	p<
.	.	4b- 4g-X 4e-	.	.	.
4A- 4AA-	.	4cc 4g- 4c	4rGyy	.	[
*	*	*v	*v	*	*
=65	=65	=65	=65	=65
*^	*	*	*	*
.	.	.	8qqc/	.	.
*ped	*	*	*	*	*
!LO:TX:t=P:problem:nuty polaczone lukiem	!	!	!LO:TX:t=P:problem:nuty polaczone drukiem	!	!
4An\	4DD-\	.	4ee- 4gn 4c-	.	>
*Xped	*	*	*	*	*
4B- 4D-	2ryy	.	4dd- 4f	.	.
4B-) 4E-	.	.	4gn 4d-	.	]
*v	*v	*	*	*	*
=66	=66	=66	=66	=66
(>8AA-L	.	8a-) 8c	.	p
!	!	!	!	!LO:HP:b=2
16E-L	.	8r	.	<
16FJJ	.	.	.	.
16GLL	.	4r	.	.
16A-	.	.	.	.
16B-	.	.	.	.
16cJJ	.	.	.	[
4d->)	.	(>16fLL	.	.
.	.	16dd-	.	.
.	.	16a-	.	.
.	.	16b-JJ	.	.
=67	=67	=67	=67	=67
*^	*	*	*	*
(>8AA-L	2rDDDyy	.	8cc) 8e- 8c	.	.
!	!	!	!	!	!LO:HP:b=2
.	.	.	.	.	<
16E-L	.	.	8r	.	.
16FJJ	.	.	.	.	.
16GLL	.	.	4r	.	.
16A-	.	.	.	.	.
16B-	.	.	.	.	.
16cJJ	.	.	.	.	.
4d->)	(>\4E-	.	(>16e-LL	.	[
.	.	.	16b-	.	.
.	.	.	16f	.	.
.	.	.	16gJJ	.	.
!!LO:LB:g=original
=68	=68	=68	=68	=68	=68
*	*	*	*^	*	*
N(>8.d->L	4AA-/)	.	4a-)	8e-L	.	.
.	.	.	.	16e-/L	.	.
16c>J	.	.	.	16e-JJ	.	.
16B-LL	4rDDyy	.	4rdddyy	8e-L	.	.
16A-	.	.	.	.	.	.
16G	.	.	.	8e-J	.	.
16FJJ	.	.	.	.	.	.
4E-	4rcyy	.	(>16e-LL	4d-^<	.	.
.	.	.	16b-	.	.	.
.	.	.	16f	.	.	.
.	.	.	16gJJ	.	.	.
=69	=69	=69	=69	=69	=69	=69
(>8.d->L	4AA-N)	.	4a-)	8e-L	.	]
.	.	.	.	16e-/L	.	.
16c>J	.	.	.	16e-JJ	.	.
16B-LL	4rBBByy	.	4rdddyy	8e-L	.	.
16A-	.	.	.	.	.	.
16G	.	.	.	8e-J	.	.
16FJJ	.	.	.	.	.	.
[>4E-)	4rdyy	.	(>16e-LL	4d-^<	.	.
.	.	.	16b-	.	.	.
.	.	.	16f	.	.	.
.	.	.	16gJJ	.	.	.
=70	=70	=70	=70	=70	=70	=70
(>8E-L]	[<2AA-	.	12b-L	2e- 2d-	.	.
.	.	.	12cc	.	.	.
16E-L	.	.	.	.	.	.
.	.	.	12gJ	.	.	.
16FJJ	.	.	.	.	.	.
16E-LL	.	.	4b-^<	.	.	.
16F	.	.	.	.	.	.
16E-	.	.	.	.	.	.
16FJJ	.	.	.	.	.	.
16E-LL	8AA-]	.	8a-) 8c	4rGyy	.	.
16F	.	.	.	.	.	.
16E-	8rGG	.	8r	.	.	.
16BB-JJ	.	.	.	.	.	.
*v	*v	*	*	*	*	*
*	*	*v	*v	*	*
=71	=71	=71	=71	=71
16AA-LL	.	16r	.	.
16D-	.	(<16d-KL	.	<
16C	.	8cJ)	.	.
16AA-JJ	.	.	.	.
16GGLL	.	16r	.	.
16D-	.	(<16d-KL	.	.
16C	.	8cJ)	.	.
16GGJJ	.	.	.	.
16FFLL	.	16r	.	.
16D-	.	(<16d-LL	.	.
16C	.	16c	.	.
16FFJJ)	.	16dnJJ	.	[
!!LO:LB:g=original
=72	=72	=72	=72	=72
*	*	*^	*	*
!	!	!LO:TX:t=P:problem:pionowy luk od 8cc do 8G)	!	!	!
!	!	!LO:TX:t=P:problem:luk konczy sie w gore	!	!	!
*ped	*	*	*	*	*
(>8CC\L	.	8cc 8e- 8G)	2ryy	.	.
!	!	!LO:TX:b:B:t=sotto voce.	!	!	!LO:HP:b=2
16GGL	.	8r	.	.	<
*Xped	*	*	*	*	*
16AAnJJ	.	.	.	.	.
16BBn\LL	.	4r	.	.	.
16C	.	.	.	.	.
16Dn	.	.	.	.	.
16EnJJ	.	.	.	.	[
*ped	*	*	*	*	*
4F)	.	(>16A-LL	4A-	.	.
.	.	16a-	.	.	.
.	.	16c	.	.	.
*Xped	*	*	*	*	*
.	.	16dnJJ	.	.	.
=73	=73	=73	=73	=73	=73
*ped	*	*	*	*	*
(>8CC\L	.	8g) 8en 8G	2ryy	.	.
16GGL	.	8r	.	.	.
*Xped	*	*	*	*	*
16AAnJJ	.	.	.	.	.
16BBn\LL	.	4r	.	.	.
16C	.	.	.	.	.
16Dn	.	.	.	.	.
16EnJJ	.	.	.	.	.
*ped	*	*	*	*	*
!	!	!	!LO:TX:t=P:problem:luk od <4A- do 8.A-L w 74 takcie	!	!
4F)	.	(>16A-LL	4A-	.	.
.	.	16f	.	.	>
.	.	16c	.	.	.
*Xped	*	*	*	*	*
.	.	16dnJJ	.	.	.
=74	=74	=74	=74	=74	=74
*^	*	*	*	*	*
*ped	*	*	*	*	*	*
(<8.A-L	4CC	.	4en)	8cL	.	.
.	.	.	.	16c'>L	.	.
16GJk	.	.	.	16c'>JJ	.	.
*Xped	*	*	*	*	*	*
16FLL	4rBBB	.	4rggyy	8c'>\	.	]
16En	.	.	.	.	.	.
16C	.	.	.	4c^>	.	.
16GGJJ)	.	.	.	.	.	.
*ped	*	*	*	*	*	*
N(>4FF\	4ryy	.	(>N[<16A-<LL	.	.	>
.	.	.	16e	.	.	.
.	.	.	16c	8rDyy	.	.
*Xped	*	*	*	*	*	*
.	.	.	16d-JJ 16Bn	.	.	.
=75	=75	=75	=75	=75	=75	=75
!	!LO:TX:t=P:problem: luk niepoprawnie sie wyswietla od 4FF do 4CC	!	!	!	!	!
*ped	*	*	*	*	*	*
N(<8.A-LN]	4CCN)	.	4en)	8cL	.	.
.	.	.	.	16cL	.	.
*Xped	*	*	*	*	*	*
16GJk	.	.	.	16cJJ	.	.
16FLL	4rBBB	.	4rffyy	8c\	.	.
16En	.	.	.	.	.	.
16C	.	.	.	4c^>\	.	.
16GGJJN)	.	.	.	.	.	]
4FF\	4A-\	.	(>16A-<LL	.	.	.
.	.	.	16e	.	.	.
.	.	.	16c	8rFyy	.	.
.	.	.	16dnJJ 16Bn	.	.	.
*v	*v	*	*	*	*	*
*	*	*v	*v	*	*
!!LO:LB:g=original
=76	=76	=76	=76	=76
!	!	!LO:TX:b:B:t=sempre piano.	!	!
8CC\	.	8en) 8c 8G<	.	.
16GLL	.	(>16enLL 16d- 16B-	.	]
16A-JJ	.	16fJJ	.	.
16GLL	.	16eLL 16d- 16B-	.	.
16C	.	16a-	.	.
16B-	.	16g 16e 16d-	.	.
16cJJ	.	16a-JJ	.	.
16B-LL	.	16gLL 16e 16d-	.	.
16C	.	16cc	.	.
16d-	.	16b- 16g 16e	.	.
16e-JJ	.	16ccJJ	.	.
=77	=77	=77	=77	=77
16d-<\LL	.	16b-LL 16g 16en	.	.
16c	.	16ff	.	.
16g>	.	16een 16dd- 16b-	.	.
16a->JJ	.	16ffJJ	.	.
16g>\LL	.	16eeLL 16dd- 16b-	.	.
16c>	.	16aa-	.	.
16b->	.	16gg 16ee 16dd-	.	.
16cc>JJ	.	16aa-JJ	.	.
16b->\LL	.	16ggLL 16ee 16dd-	.	.
16c>	.	16ccc	.	.
16dd->	.	16bb- 16gg 16ff-X	.	.
16ee-X>JJ	.	16cccJJ	.	.
=78	=78	=78	=78	=78
*	*	*ped	*	*
16dd->\LL	.	16bb-LL 16gg 16ff-X	.	.
16ee->	.	16ccc	.	.
16dd->	.	16bb- 16gg 16ff-	.	.
*	*	*Xped	*	*
16cc>JJ	.	16cccJJ	.	.
*	*	*ped	*	*
16dd->\LL	.	16bb-LL 16gg 16ff-	.	.
16ee->	.	16ccc	.	.
16dd->	.	16bb- 16gg 16ff-	.	.
16ee->JJ	.	16cccJJ	.	.
16dd->\LL	.	16bb-LL 16gg 16ff-	.	.
16ee->	.	16ccc	.	.
16dd->	.	16bb- 16gg 16ff-	.	.
*	*	*Xped	*	*
16cc>JJ	.	16cccJJ	.	.
*clefG2	*	*	*	*
!!LO:LB:g=original
=79	=79	=79	=79	=79
*	*	*^	*	*
16dd-LL	.	16bb-LL 16gg	8eenL	.	.
16cc	.	16aa-	.	.	.
16b-	.	16gg	8dd-J	.	.
16a-JJ	.	16ffJJ	.	.	.
16gLL	.	16eeLL	8b-L	.	.
16f	.	16dd-	.	.	.
16en	.	16cc	8gJ	.	.
16d-JJ	.	16b-JJ	.	.	.
*clefF4	*	*	*	*	*
16cLL	.	16a-LL	8e-L	.	.
16B-	.	16g	.	.	.
16A-	.	16f	8c#XJ	.	.
16GJJ	.	[>16e-JJ)	.	.	.
*kcancel	*	*kcancel	*kcancel	*	*
=80||	=80||	=80||	=80||	=80||	=80||
*k[f#c#g#d#]	*	*k[f#c#g#d#]	*	*	*
*ped	*	*	*	*	*
(>8BBB\L	.	8g# 8e-y] 8B 8G#<	8rCyy	.	.
!	!	!	!	!	!LO:HP:b=2
16BBL	.	4.rcccyy	16e'>LL	.	<
16C#JJ	.	.	16e'>JJ	.	.
16D#LL	.	.	8e'>	.	.
16E	.	.	.	.	.
*Xped	*	*	*	*	*
16F#	.	.	4e^>	.	.
16G#JJ	.	.	.	.	[
4A>)	.	(>16c#LL	.	.	.
.	.	16a	.	.	.
.	.	16e	8rByy	.	.
.	.	16f#JJ	.	.	.
=81	=81	=81	=81	=81	=81
*ped	*	*	*	*	*
(>8BBBL	.	8g#) 8e 8B< 8G#<	2rDyy	.	.
!	!	!	!	!	!LO:HP:b=2
16BBL	.	16e'>\LL	.	.	<
16C#JJ	.	16e'>JJ	.	.	.
16D#LL	.	8e'>\L	.	.	.
16E	.	.	.	.	.
16F#	.	8e'>J	.	.	.
*Xped	*	*	*	*	*
16G#JJ	.	.	.	.	[
(<4A>\)	.	(>/16BLL	4BB<\	.	.
.	.	16f#	.	.	.
.	.	16c#	.	.	.
.	.	16d#JJ	.	.	.
=82	=82	=82	=82	=82	=82
*^	*	*	*	*	*
*ped	*	*	*	*	*	*
(<8.AL)	4EE	.	4e)	8BL	.	.
!	!	!	!	!	!	!LO:HP:a
!	!	!	!	!LO:TX:a:t=cres _:problem:dynamics with extention lines	!	!LO:HP:t=cres:ext=ud
.	.	.	.	16B'>L	.	<
*Xped	*	*	*	*	*	*
16G#Jk	.	.	.	16B'>JJ	.	.
16F#/LL	4rDDyy	.	4rggyy	8B'>\L	.	.
16E	.	.	.	.	.	.
16D#	.	.	.	8B'>J	.	.
16C#JJ	.	.	.	.	.	.
*ped	*	*	*	*	*	*
!	!LO:TX:t=P:problem:ligatura konczy sie w dol	!	!LO:TX:t=P:problem:brak rozpoczecia łuku	!	!	!
N(>\4BB)	[>4A	.	(>16B<^>LL	4rFyy	.	.
.	.	.	16f#	.	.	.
.	.	.	16c#	.	.	.
*Xped	*	*	*	*	*	*
.	.	.	16d#JJ	.	.	.
!!LO:PB:g=original
=83	=83	=83	=83	=83	=83	=83
!	!	!	!LO:TX:t=P:problem:brak poczatku luku	!	!	!
*ped	*	*	*	*	*	*
8.A\L]	4EEN)	.	4e)	8B<L	.	.
.	.	.	.	16B<L	.	.
*Xped	*	*	*	*	*	*
16G#Jk	.	.	.	16B<JJ	.	.
16F#\LL	4rBBByy	.	4rffyy	8B<L	.	.
16E	.	.	.	.	.	.
16D#X	.	.	.	8B#<XJ	.	.
16DnJJ	.	.	.	.	.	.
*ped	*	*	*	*	*	*
4ryy	4C# 4EE#X	.	(>16c#<LL^>	4B<n\	.	.
.	.	.	16b	.	.	.
.	.	.	16f#	.	.	.
*Xped	*	*	*	*	*	*
.	.	.	16g#JJ	.	.	.
=84	=84	=84	=84	=84	=84	=84
*ped	*	*	*	*	*	*
8FF#\L	2rCCyy	.	8a) 8c# 8A<	8rEyy	.	.
16C#L	.	.	4.ryy	16c#'>LL	.	.
*Xped	*	*	*	*	*	*
16D#\JJ	.	.	.	16c#'>JJ	.	.
16E#X\LL	.	.	.	8c#'>L	.	.
16F#\	.	.	.	.	.	.
16G#	.	.	.	8c#'>J	.	.
16AJJ	.	.	.	.	.	.
*ped	*	*	*	*	*	*
N(>\4C#	[<4B	.	(>16c#<^>LL	4ryy	.	.
.	.	.	16g#	.	.	.
.	.	.	16d#	.	.	.
*Xped	*	*	*	*	*	*
.	.	.	16e#XJJ	.	.	.
=85	=85	=85	=85	=85	=85	=85
*ped	*	*	*	*	*	*
8.B\L]	4FF#N)	.	4f#)	8c#<L	.	.
.	.	.	.	16c#<L	.	.
*Xped	*	*	*	*	*	*
16AJk	.	.	.	16c#<JJ	.	.
16G#\LL	4rBBByy	.	4ryy	8c#<\L	.	.
16F#	.	.	.	.	.	.
16E#X	.	.	.	8c##<XJ	.	.
16EnJJ	.	.	.	.	.	.
*ped	*	*	*	*	*	*
4rAyy	4D#\ 4FF##X\	.	(>16d#^<LL 16A#<X	4rDyy	.	.
.	.	.	16cc#	.	.	.
.	.	.	16g#	.	.	.
*Xped	*	*	*	*	*	*
.	.	.	16a#XJJ	.	.	.
*	*	*	*v	*v	*	*
=86	=86	=86	=86	=86	=86
*ped	*	*	*	*	*
(>8GG#\L	2rFFFyy	.	8b) 8d# 8B	.	.
16D#L	.	.	16d#'>\LL	.	.
*Xped	*	*	*	*	*
16E#XJJ	.	.	16d#'>JJ	.	.
16F##XLL	.	.	8d#'>\L	.	.
16G#	.	.	.	.	.
16A#X	.	.	8d#'>J	.	.
16BJJ)	.	.	.	.	.
*ped	*	*	*	*	*
(>\4D#	4c#>	.	(>16d#^<LL	.	.
.	.	.	16a#y	.	.
.	.	.	16e#X	.	.
*Xped	*	*	*	*	*
.	.	.	16f##XJJ	.	.
!!LO:LB:g=original
=87	=87	=87	=87	=87	=87
*	*	*	*^	*	*
*	*	*	*	*	*	*^
*ped	*	*	*	*	*	*	*
8c#>L	(>8GG#\L)	.	4g#)	8d#/L	.	.	.
8B>J	16D#L	.	.	16d#'L	.	.	.
*Xped	*	*	*	*	*	*	*
.	16E#XJJ	.	.	16d#JJ	.	.	.
!	!	!	!	!LO:TUP:b	!	!	!
2rgyy	16F##XLL	.	8ryy	(<12d#L	.	.	.
.	16G#	.	.	.	.	.	.
.	.	.	.	12d#	.	.	.
.	16A#X	.	8ryy	.	.	.	.
.	.	.	.	12d#J)	.	.	.
.	16BJJ)	.	.	.	.	.	.
*ped	*	*	*	*	*	*	*
.	4D#	.	16d#LL^>	8.c#L	.	.	<
.	.	.	16a#	.	.	.	.
.	.	.	16e#X	.	.	.	.
*Xped	*	*	*	*	*	*	*
.	.	.	16f##JJ	16A#XJk	.	[	[
*v	*v	*	*	*	*	*	*
*	*	*v	*v	*	*	*
*	*	*	*	*v	*v
=88	=88	=88	=88	=88
*	*	*	*	*^
*ped	*	*	*	*	*
8Dn/ 8DDn/	.	(>8g# 8B	.	fz	.
.	.	.	.	.	.
!	!	!	!	!	!LO:DY:rj
16G#LL	.	16eLL 16B	.	<	p
16AJJ	.	16f#JJ	.	.	.
16G#LL	.	16eLL 16B	.	.	.
16D	.	16b	.	.	.
16B	.	16g# 16e	.	.	.
16c#JJ	.	16aJJ	.	.	.
16BLL	.	16g#/LL 16e/	.	.	.
16D	.	16ee	.	.	.
16dn	.	16b 16g#	.	.	.
16eJJ	.	16cc#JJ	.	.	.
!	!	!LO:TX:b:t=cres _:problem:dynamics with extention lines	!	!	!LO:HP:t=cres:ext=ud
.	.	.	.	.	<
=89	=89	=89	=89	=89	=89
16dnLL	.	16bLL 16g#	.	.	.
16D#	.	16gg#	.	.	.
16g#>	.	16ee 16b	.	.	.
16a>JJ	.	16ff#JJ	.	[	[
16g#>LL	.	16eeLL 16b	.	.	>
16d>	.	16bb	.	.	.
16b>	.	16gg# 16ee	.	.	.
16cc#>JJ	.	16aaJJ	.	.	.
16b>LL	.	16gg#LL 16ee	.	.	.
16d>	.	16eee	.	.	.
16dd#>	.	16bb 16gg#	.	.	.
16ee>JJ	.	16ccc#JJ	.	.	.
*clefG2	*	*	*	*	*
=90	=90	=90	=90	=90	=90
*	*	*8va	*	*	*
16ddnLL	.	16bb/LL 16gg#/	.	.	.
16dny	.	16ggg#	.	.	.
16gg#	.	16eee 16bb	.	.	.
16aaJJ	.	16fff#JJ	.	.	.
16gg#LL	.	16eee/LL 16bb/	.	.	.
16dd	.	16ggg#	.	.	.
16gg#	.	16eee 16bb	.	>	.
16aaJJ	.	16fffnJJ	.	.	.
16gg#LL	.	16eee/LL 16bb/	.	.	.
16dd	.	16ggg#	.	.	.
16gg#	.	16eee 16bb	.	.	.
*Xped	*	*	*	*	*
16aaJJ	.	16fffJJ	.	.	.
!!LO:LB:g=original
=91	=91	=91	=91	=91	=91
*ped	*	*	*	*	*
8.gg#L	.	16eeeLL 16bb	.	.	.
.	.	16ggg#X	.	.	.
!	!	!LO:TX:b:B:t=poco ritenuto.	!	!	!
.	.	16fffn	.	.	.
16ffnJk	.	16dddnJJ	.	.	.
*	*	*X8va	*	*	*
!	!	!LO:TX:a:t=loco.	!	!	!
16ddn\LL	.	16bbLL	.	.	.
16b	.	16gg#	.	.	.
16g#	.	16ffny	.	.	.
16f#JJ	.	16ddnyJJ	.	.	.
*clefF4	*	*	*	*	*
16dnLL	.	16b\LL	.	.	.
16B	.	16g#	.	.	.
*Xped	*	*	*	*	*
16G#	.	16dny	.	.	.
16FnJJ	.	16e-XJJ	.	.	]
*	*	*	*	*v	*v
=92	=92	=92	=92	=92
*k[b-e-a-d-]	*	*k[b-e-a-d-]	*	*
*ped	*	*	*	*
!	!	!LO:TX:B:b:t=in tempo.	!	!
!LO:TUP:a	!	!	!	!LO:DY:b=2
!	!	!	!	!LO:DY:rj
(>12BBB-L<	.	8f\L)	.	fp
12A-	.	.	.	.
.	.	(>\16b-L	.	.
12B-J	.	.	.	.
.	.	16ccJJ	.	.
*Xtuplet	*	*	*	*
12dnL	.	16ddnLL	.	.
.	.	16ee-	.	.
12B-	.	.	.	.
.	.	16ff	.	.
12A-J	.	.	.	.
.	.	16ggJJ	.	.
12FL	.	16aa-LL	.	.
!	!	!LO:TX:b:t=dim _:problem:dynamics with extention lines	!	!LO:HP:t=dim:ext=ud
.	.	16bb-	.	>
12A-	.	.	.	.
.	.	16ccc	.	.
12B-J	.	.	.	.
.	.	16ddd-JJ	.	.
=93	=93	=93	=93	=93
*	*	*8va	*	*
12dnL	.	16eee-LL	.	.
.	.	16fff	.	.
12B-	.	.	.	.
.	.	16ggg	.	.
12A-J	.	.	.	.
.	.	16aaa-JJ	.	.
12DnyL	.	16ccccLL	.	.
.	.	16bbb-JJ)	.	.
*	*	*X8va	*	*
12A-	.	.	.	.
!	!	!LO:TX:a:t=loco.	!	!
.	.	8r	.	.
12B-J	.	.	.	]
12dL	.	4r	.	.
12B-	.	.	.	.
*Xped	*	*	*	*
12A-J	.	.	.	.
=94	=94	=94	=94	=94
*ped	*	*	*	*
12BB-L	.	(>2f	.	p
12A-	.	.	.	.
12B-J	.	.	.	.
12dnL	.	.	.	.
12B-	.	.	.	.
*Xped	*	*	*	*
12A-J	.	.	.	.
*ped	*	*	*	*
12e->L	.	4g	.	.
12B-	.	.	.	.
*Xped	*	*	*	*
12A-J	.	.	.	.
!!LO:LB:g=original
=95	=95	=95	=95	=95
*ped	*	*	*	*
12dn>L	.	4.f	.	.
12B-	.	.	.	.
12A-J	.	.	.	.
12d>L	.	.	.	<
12B-	.	.	.	.
.	.	8gL	.	.
*Xped	*	*	*	*
12A-J	.	.	.	.
12cL	.	8.e-	.	.
12B-	.	.	.	.
12A-J	.	.	.	.
.	.	16ccJk	.	[
=96	=96	=96	=96	=96
*ped	*	*	*	*
12dnL	.	8.fL	.	.
12B-	.	.	.	.
12A-J	.	.	.	.
.	.	16gJk	.	.
*Xped	*	*	*	*
!	!	!LO:TUP:b	!	!
12dL	.	12b-L	.	.
12B-	.	12a-	.	.
12A-J	.	12gJ	.	.
12dL	.	8fL	.	.
12B-	.	.	.	.
.	.	8gJ)	.	.
12A-J	.	.	.	.
=97	=97	=97	=97	=97
*ped	*	*	*	*
12d-XL	.	(>\8e-L	.	.
12B-	.	.	.	.
.	.	16b-L	.	.
*Xped	*	*	*	*
12A-J	.	.	.	.
.	.	16ccJJ	.	>
12d-L	.	16dd-LL	.	.
.	.	16ee-	.	.
12A-	.	.	.	.
.	.	16ff	.	.
12GJ	.	.	.	.
.	.	16ggJJ	.	.
12d-L	.	16aa-LL	.	.
.	.	16bb-	.	.
12F	.	.	.	.
.	.	16ccc	.	.
12E-J	.	.	.	.
.	.	16ddd-JJ	.	.
=98	=98	=98	=98	=98
*ped	*	*	*	*
12AA-L)	.	16fffLL	.	.
.	.	16eee-JJ)	.	]
(>12G-X	.	.	.	.
.	.	8r	.	.
12A-J	.	.	.	.
12cL	.	4r	.	.
12A-	.	.	.	.
*Xped	*	*	*	*
12G-J	.	.	.	.
12d-L	.	(>4f	.	>
12A-	.	.	.	.
12G-J	.	.	.	.
=99	=99	=99	=99	=99
*	*	*^	*	*
*ped	*	*	*	*	*
12cL	.	4.e-	2rAyy	.	]
12A-	.	.	.	.	.
12G-XJ	.	.	.	.	.
12cL	.	.	.	.	<
12A-	.	.	.	.	.
*Xped	*	*	*	*	*
.	.	8fL	.	.	.
12G-J	.	.	.	.	.
*ped	*	*	*	*	*
12B-L	.	(<8d-	4d-	.	.
12G-	.	.	.	.	.
.	.	8b-J	.	.	.
12E-J	.	.	.	.	[[
!!LO:LB:g=original
=100	=100	=100	=100	=100	=100
12AA-L)	.	8e-L)	2d-	.	.
*Xped	*	*	*	*	*
(>12E-	.	.	.	.	.
.	.	8fJ	.	.	.
12G-XJ	.	.	.	.	.
!	!	!LO:TUP:b	!	!	!
12B-L	.	12a-L	.	.	.
12E-	.	12g-X	.	.	.
12FJ	.	12fJ	.	.	.
*ped	*	*	*	*	*
12G-L	.	8e-L	4c	.	>
12AA-	.	.	.	.	.
*Xped	*	*	*	*	*
.	.	8fJk	.	.	.
12A-J	.	.	.	.	.
=101	=101	=101	=101	=101	=101
*ped	*	*	*	*	*
12FL	.	(<2dn)	4c-X	.	]
12AA-	.	.	.	.	.
12FJ	.	.	.	.	.
12c-XL	.	.	2rcyy	.	.
12F	.	.	.	.	.
12AA-J	.	.	.	.	.
*ped	*	*	*	*	*
12B-L 12BB-	.	8.ddn/L)	.	.	>
12F	.	.	.	.	.
12DnJ	.	.	.	.	.
.	.	(>16ddJk	.	.	]
*	*	*v	*v	*	*
=102	=102	=102	=102	=102
*^	*	*	*	*
*ped	*	*	*	*	*
!	!	!	!LO:TUP:b	!	!
12A-L	2C-X	.	20ddnLL	.	.
.	.	.	20cc-X	.	.
12F	.	.	.	.	.
.	.	.	20a-	.	.
.	.	.	20f	.	.
12DnJ	.	.	.	.	.
.	.	.	20e-JJ	.	.
.	.	.	8qqdn/L	.	.
.	.	.	8qqe-/	.	.
.	.	.	8qqf/J	.	.
12A-L	.	.	8e-	.	.
12F	.	.	.	.	.
.	.	.	[<4.dny	.	.
*Xped	*	*	*	*	*
12DJ	.	.	.	.	.
*ped	*	*	*	*	*
12B-L	4BB-\	.	.	.	.
12F	.	.	.	.	.
*Xped	*	*	*	*	*
12DJ	.	.	.	.	.
=103	=103	=103	=103	=103	=103
*ped	*	*	*	*	*
12A-/L	2C-X\	.	[<4dnX]	.	<
12F	.	.	.	.	.
12DnJ	.	.	.	.	.
12A-/L	.	.	8dL]	.	.
12F	.	.	.	.	.
.	.	.	8d-XJ)	.	.
*Xped	*	*	*	*	*
12B-J 12D-X	.	.	.	.	[
.	.	.	.	.	.
*ped	*	*	*	*	*
12G-X/L	4rCCCyy	.	8r	.	.
12BB-	.	.	.	.	.
*Xped	*	*	*	*	*
!	!	!	!LO:TX:b:t=cres. _:problem:dynamics with extention lines	!	!LO:HP:t=cres:ext=ud
.	.	.	(>8g-X	.	<
12e-J	.	.	.	.	.
*v	*v	*	*	*	*
!!LO:PB:g=original
=104	=104	=104	=104	=104
*	*	*^	*	*
*ped	*	*	*	*	*
!	!	!LO:TX:t=P:problem:luk pionowy miedzy 2cc- i 2g-	!	!	!
12E-L 12AA-	.	2cc-X\ 2g-X\	2rcyy	.	.
12A-	.	.	.	.	.
*Xped	*	*	*	*	*
12B-J	.	.	.	.	.
12d-L	.	.	.	.	.
12c-X	.	.	.	.	.
12B-J	.	.	.	.	.
*ped	*	*	*	*	*
12A-L	.	8.cc-L	4f	.	.
12D-	.	.	.	.	.
*Xped	*	*	*	*	*
12d-J)	.	.	.	.	.
.	.	16b-Jk	.	.	.
=105	=105	=105	=105	=105	=105
*	*	*	*	*	*^
(>8.B-L	.	4a- 4f-X	2rAyy	.	>	.
16c-XJk	.	.	.	.	]	.
12e->L	.	8.gL)	.	.	.	.
12d->	.	.	.	.	.	.
12c-J	.	.	.	.	.	.
.	.	(>16ee-Jk	.	.	.	.
*	*	*Xtuplet	*	*	*	*
12B-L	.	12ee-L	8.gL	.	.	.
12E-	.	12dd-	.	.	.	.
12e-J	.	12cc-XJ	.	.	.	.
.	.	.	16g-XJk	.	.	.
*	*	*	*	*	*v	*v
=106	=106	=106	=106	=106	=106
*^	*	*	*	*	*
4rccyy	12e-L	.	8.b-L)	12g-XL	.	.
.	12d-	.	.	12f-X	.	.
.	12c-XJ	.	.	12e-J	.	.
.	.	.	(>16ee-Jk 16cc-X	.	.	.
12reyy	(>12B-L)	.	12ee-L	8.gnL 8.d-	.	.
6E-	12E-	.	12dd-	.	.	.
.	12e-J 12A-	.	12cc-J	.	.	.
.	.	.	.	16a-Jk 16c-X	.	.
4rgyy	12e-L 12E-	.	8.b-L) 8.g 8.B-	4rEyy	.	.
.	12d- 12D-	.	.	.	.	.
.	12c-J) 12C	.	.	.	.	.
.	.	.	(>16ee-Jk 16a- 16e-	.	.	.
*v	*v	*	*	*	*	*
=107	=107	=107	=107	=107	=107
(>8.B-L 8.BB-	.	12ee-L	8.gL 8.f-X	.	.
.	.	12dd-)	.	.	.
.	.	(>12cc-XJ	.	.	.
16A-Jk 16AA-	.	.	16a-Jk 16f-	.	.
12GL 12GG	.	12dd-L 12b- 12f-X	2rAyy	.	.
12A- 12AA-	.	12cc-X 12e-	.	.	.
12E-J 12EE-	.	12b-J 12g 12B-	.	.	.
12DnL 12DDny	.	12cc-L 12a- 12c-y	.	.	.
12E- 12EE-	.	12b- 12g 12B-	.	.	.
12DJ) 12DD	.	12cc-J) 12a- 12c-y	.	.	.
!!LO:LB:g=original
=108	=108	=108	=108	=108	=108
!	!	!LO:TX:B:a:t=agitato.	!	!	!
*ped	*	*	*	*	*
(>\12EE-L	.	(>2b-	8re	.	[f
12Dn	.	.	.	.	.
.	.	.	4e- 4d-X	.	.
12E-J	.	.	.	.	.
*Xped	*	*	*	*	*
12G-XL	.	.	.	.	.
12F-X	.	.	.	.	.
.	.	.	4e- 4d-	.	.
12E-J)	.	.	.	.	.
*ped	*	*	*	*	*
(>12AA-L	.	4cc-X	.	.	.
12A-	.	.	.	.	.
.	.	.	8e- 8c-y	.	.
*Xped	*	*	*	*	*
12E-J)	.	.	.	.	.
=109	=109	=109	=109	=109	=109
*ped	*	*	*	*	*
(>\12DD-L	.	4.b-	8rd	.	.
12A-	.	.	.	.	.
.	.	.	4f-X 4B-	.	.
*Xped	*	*	*	*	*
12D-J)	.	.	.	.	.
*ped	*	*	*	*	*
(>12EE-\L	.	.	.	.	.
12G	.	.	.	.	.
.	.	8cc-X/ 8e-/	8d-\	.	<
*Xped	*	*	*	*	*
12E-J))	.	.	.	.	.
*ped	*	*	*	*	*
*	*	*tuplet	*	*	*
(>12AA-L	.	12a-/L	4ryy	.	.
12A-	.	12e- 12c-y	.	.	.
12D-J)	.	12ff-XJ)	.	.	[
*	*	*v	*v	*	*
=110	=110	=110	=110	=110
*ped	*	*	*	*
*	*	*Xtuplet	*	*
(>12DD-L	.	(>12b-/L	.	.
12d-	.	12a- 12f/	.	.
*Xped	*	*	*	*
12A-J	.	12cc-X/J	.	.
12c-XL	.	12ee-/L	.	.
12B-	.	12dd- 12a- 12f	.	.
12e-J	.	12cc-J	.	.
*ped	*	*	*	*
12d-L	.	12b-/L	.	.
12E-	.	12g/ 12d-/	.	.
*Xped	*	*	*	*
12EE-J)	.	12cc-/J	.	.
=111	=111	=111	=111	=111
*	*	*^	*	*
(>\12AA-L	.	2a-	8rc	.	.
12Dn	.	.	.	.	<
.	.	.	4e- 4c-y	.	.
12E-J	.	.	.	.	.
12F-XL	.	.	.	.	.
12E-	.	.	.	.	.
.	.	.	4e- 4c-y	.	.
12AA-J)	.	.	.	.	.
(>12Fn\L	.	4e-)	.	.	.
12E-	.	.	.	.	.
.	.	.	8B-)	.	.
12GG-XJ)	.	.	.	.	[
!!LO:LB:g=original
=112	=112	=112	=112	=112	=112
!	!	!LO:TX:b:t=P:łuk pionowy od 8qAn do 2cc:problem	!	!	!
.	.	(>8qAn</	.	.	.
*ped	*	*	*	*	*
(>\12FFL	.	(>2cc)	8re	.	.
12En	.	.	.	.	.
*Xped	*	*	*	*	*
.	.	.	4f 4e-X	.	.
12FJ)	.	.	.	.	.
(>\12AAnL	.	.	.	.	.
12G-X	.	.	.	.	.
.	.	.	4f 4e-	.	.
12FJ)	.	.	.	.	.
(>\12BB-L	.	4dd-	.	.	[
12G-	.	.	.	.	.
.	.	.	8f 8d-	.	.
12FJ)	.	.	.	.	.
=113	=113	=113	=113	=113	=113
*ped	*	*	*	*	*
(>12EE-L<	.	[>4cc	8rc	.	.
12B-	.	.	.	.	.
*Xped	*	*	*	*	*
.	.	.	8g 8c	.	.
12E-J)	.	.	.	.	<
*ped	*	*	*	*	*
(>12FFL	.	12ccL]	4cc	.	.
12An	.	12f 12e-	.	.	.
*Xped	*	*	*	*	*
12FJ)	.	12dd-J	.	.	.
.	.	.	.	.	.
*ped	*	*	*	*	*
(>12BB-L	.	12b-L	4b-	.	.
12B-	.	12f 12d-	.	.	.
*Xped	*	*	*	*	*
12E-J)	.	12gg) 12b-J 12g	.	.	.
.	.	.	.	.	.
=114	=114	=114	=114	=114	=114
*ped	*	*	*	*	*
(>12EE-L	.	(>12cc/L	12ryy	.	[
12e-	.	12b- 12g-X	6g-X	.	.
*Xped	*	*	*	*	*
12B-J	.	12dd-J	.	.	.
12d-L	.	12ff/L	12ryy	.	.
12c	.	12ee- 12b- 12g-	6g-	.	.
12fJ	.	12dd-J	.	.	.
*ped	*	*	*	*	*
12e-L	.	12cc/L	12ryy	.	.
12E-	.	12b- 12g-	6g-	.	.
*Xped	*	*	*	*	*
12B-J	.	12dd-J	.	.	.
=115	=115	=115	=115	=115	=115
12d-L	.	12ffL	12ryy	.	.
12c	.	12ee- 12b- 12g-X	6g-	.	.
12fJ	.	12dd-J	.	.	.
*ped	*	*	*	*	*
12e-L	.	12cc/L	12ryy	.	.
12E-	.	12b- 12g-/	6g-	.	.
*Xped	*	*	*	*	*
12B-J	.	12cc/J	.	.	.
*ped	*	*	*	*	*
12enL	.	12cc#X/L	12ryy	.	.
12En	.	12b-/ 12gn/	6ryy	.	.
*Xped	*	*	*	*	*
12B-J)	.	12cc#/J	.	.	.
*	*	*v	*v	*	*
!!LO:LB:g=original
=116||	=116||	=116||	=116||	=116||
*^	*	*	*	*
*k[b-e-]	*	*	*k[b-e-]	*	*
!	!	!	!LO:TX:B:b:t=dolce.	!	!
*ped	*	*	*	*	*
!LO:N:vis=2.	!	!	!	!	!
8F\L)	2.F/	.	2dd/	.	.
8f> 8B-	.	.	.	.	.
8f> 8B-	.	.	.	.	.
*Xped	*	*	*	*	*
8f> 8B-	.	.	.	.	.
8g> 8B-	.	.	8ee-/L	.	.
8d>J 8G#X	.	.	8b-J	.	.
=117	=117	=117	=117	=117	=117
!LO:N:vis=2	!	!	!	!	!
(>8FL	2F\	.	16bn/LL)	.	.
.	.	.	(<16dd	.	.
8e-\ 8An\	.	.	16b	.	.
.	.	.	16ddJJ	.	.
8e- 8A	.	.	4cc/)	.	.
8e-J) 8A	.	.	.	.	.
4reyy	(>8EnL	.	8r	.	.
.	8E-XJ	.	16r	.	.
.	.	.	(>16f	.	.
=118	=118	=118	=118	=118	=118
*ped	*	*	*	*	*
!LO:N:vis=2	!	!	!	!	!
8DL	2D/)	.	2ff/	.	.
8f>\ 8B-\)	.	.	.	.	.
8f> 8B-	.	.	.	.	.
*Xped	*	*	*	*	*
8f> 8B-	.	.	.	.	.
8f> 8B-	4ryy	.	8.ee-L	.	.
8f>J 8B-	.	.	.	.	.
.	.	.	16ddJk	.	.
=119	=119	=119	=119	=119	=119
!LO:N:vis=2	!	!	!	!	!
!LO:TX:t=P:mixed beam:problem	!	!	!	!	!
8E-L<\	2E-/	.	16dd/LL	.	.
.	.	.	16ee-	.	.
8g->X\ 8B-\	.	.	16bn	.	.
.	.	.	16ddJJ	.	.
*ped	*	*	*	*	*
8g->\ 8B-\	.	.	4cc/)	.	.
8g->\ 8B-\	.	.	.	.	.
8g->\ 8B-\	4ryy	.	8rff	.	.
*Xped	*	*	*	*	*
8EE-/J	.	.	(>8gg-X/	.	.
*v	*v	*	*	*	*
=120	=120	=120	=120	=120
*	*	*	*	*^
*ped	*	*	*	*	*
8FF\L	.	8.ff/L	.	.	.
8dJ 8B- 8D	.	.	.	.	.
*Xped	*	*	*	*	*
.	.	16eenJk	.	.	.
8GG\L	.	16ee-X/LL	.	<	.
.	.	16dd	.	.	.
*ped	*	*	*	*	*
8dJ 8B- 8En	.	16cc	.	.	.
.	.	16b-JJ	.	.	.
!	!	!LO:TX:b:t=P:problem:"cres." w srodku widelek	!	!	!
8CC\L	.	16an/LL	.	.	<
.	.	16b-	.	.	.
8cJ 8B- 8E	.	16cc	.	.	.
*Xped	*	*	*	*	*
.	.	16ddJJ	.	[	.
*	*	*	*	*v	*v
!!LO:LB:g=original
=121	=121	=121	=121	=121
*ped	*	*	*	*
8FFL	.	4.f)	.	.
8B- 8C	.	.	.	.
8B- 8C	.	.	.	f
8B-J 8C	.	(<16cLL	.	.
*Xped	*	*	*	*
.	.	16dJJ	.	.
*ped	*	*	*	*
8FF\L	.	16e-LL	.	.
.	.	16en	.	.
8AJ 8C	.	16f	.	.
*Xped	*	*	*	*
.	.	16e-XJJ	.	.
=122	=122	=122	=122	=122
*ped	*	*	*	*
8FF#X\L	.	[<2.d)^>	.	.
*Xped	*	*	*	*
8AJ 8D	.	.	.	.
*ped	*	*	*	*
8GG\L	.	.	.	.
*Xped	*	*	*	*
8B-J 8D	.	.	.	>
*ped	*	*	*	*
8DD\L	.	.	.	.
*Xped	*	*	*	*
8AJ 8F#X 8D	.	.	.	.
=123	=123	=123	=123	=123
*ped	*	*	*	*
8Bn\L 8G\ 8D\	.	4d]	.	<
*Xped	*	*	*	*
8GGJ	.	.	.	.
*ped	*	*	*	*
8CC\L	.	[<4e-	.	.
*Xped	*	*	*	*
8cJ 8G 8C	.	.	.	[
8FFF\L	.	(</32e-L]	.	.
.	.	32f	.	.
.	.	32a	.	.
.	.	32cc	.	.
8e-J 8A 8F	.	32ee-	.	.
.	.	32ff	.	.
.	.	32aa	.	.
.	.	32ggJ)	.	.
=124	=124	=124	=124	=124
*ped	*	*	*	*
!LO:TX:t=P:mixed beam:problem	!	!	!	!
8BBB-/L<	.	(>/4.ff	.	.
(>8d\ 8F\	.	.	.	.
8dd>\ 8f>\ 8d>\	.	.	.	.
*Xped	*	*	*	*
8cc>\ 8f>\ 8d>\	.	8gg/L	.	.
8b->\ 8f>\ 8d>\	.	8dd	.	.
8g>'>\J 8d>'>\ 8B->'>\	.	8ggJ	.	.
=125	=125	=125	=125	=125
8a>L 8e-> 8c>	.	16ggLL	.	.
.	.	[>16ffJJ	.	.
*	*	*tuplet	*	*
8f> 8e-> 8A	.	24ffLL]	.	.
.	.	24ee-	.	.
.	.	24ddJJ	.	.
8g->X 8e-> 8B-	.	16ccLL	.	.
.	.	16dd	.	.
8f> 8e-> 8A	.	16cc	.	.
.	.	16bnJJ	.	.
8e- 8A 8F#X	.	16cc/LL	.	.
.	.	16ee-	.	.
8cJ) 8F# 8D	.	16a	.	.
.	.	16ddJJ)	.	.
!!LO:LB:g=original
=126	=126	=126	=126	=126
*ped	*	*	*	*
*	*	*Xtuplet	*	*
8GG	.	(>24ccLL	.	.
.	.	24b-	.	.
.	.	24cc#XJJ	.	.
4B- 4G 4D	.	24ee-LL	.	.
.	.	24dd	.	.
.	.	24ff#XJJ	.	.
.	.	24aaLL	.	.
.	.	24gg	.	.
.	.	24aaJJ	.	.
8dL 8D	.	24cccLL	.	.
.	.	24bb-	.	.
.	.	24ccc#XJJ	.	.
*Xped	*	*	*	*
*	*	*8va	*	*
*	*	*rscale:4	*	*
*	*	*cue	*	*
8gJ 8B-	.	48dddL<	.	.
.	.	48dddd	.	.
.	.	48aaa	.	.
.	.	48ccccn	.	.
.	.	48bbb-X	.	.
.	.	48ggg	.	.
8rD	.	48ddd	.	.
.	.	48ccc#	.	.
.	.	48bb-	.	.
*	*	*X8va	*	*
!	!	!LO:TX:a:t=loco.	!	!
.	.	48gg	.	.
.	.	48dd	.	.
.	.	48b-J	.	.
*	*	*Xcue	*	*
*	*	*rscale:1	*	*
=127	=127	=127	=127	=127
.	.	8qc/	.	>
*ped	*	*	*	*
8DD	.	2b-/	.	.
4c 4F#X 4D	.	.	.	.
8c 8F# 8D	.	.	.	.
8c 8F# 8DL	.	8.aL	.	.
8cJ 8F# 8E-	.	.	.	.
.	.	(<16gJk)	.	]
=128	=128	=128	=128	=128
*ped	*	*	*	*
8EnL 8EEn	.	(>/[>4gg)	.	f
8c#X 8B- 8G 8E	.	.	.	.
8g>J 8c# 8B-	.	16gg/LL]	.	.
*Xped	*	*	*	*
.	.	16een	.	.
8rD	.	16cc#X	.	.
.	.	16ccnJJ	.	.
4rD	.	16b-/LL	.	.
.	.	16a	.	.
.	.	16g	.	.
.	.	16f#XJJ	.	.
!!LO:PB:g=original
=129	=129	=129	=129	=129
*	*	*	*	*^
2.rF	.	16enLL	.	.	.
.	.	16d#X	.	.	.
.	.	16c#X	.	.	.
.	.	16B-JJ	.	.	.
.	.	16G<LL	.	.	.
.	.	16B-<	.	.	.
.	.	16c#	.	<	.
.	.	16f#XJJ	.	.	.
.	.	16eLL>	.	.	.
!	!	!LO:TX:b:t=P:problem:"cres." w srodku widelek	!	!	!
.	.	16a	.	.	<
.	.	16g	.	.	.
.	.	16aaJJ	.	[	.
*	*	*	*	*v	*v
=130	=130	=130	=130	=130
8GL 8GG	.	[>4bb-/	.	>
8en 8c#X 8B- 8G	.	.	.	.
8b->J 8e> 8c#>	.	16bb-LL]	.	.
.	.	16gg	.	.
8rD	.	16een	.	]
.	.	16dd#XJJ	.	.
4rD	.	16cc#X/LL	.	.
.	.	16ccn	.	.
.	.	16b-	.	.
.	.	16aJJ	.	.
=131	=131	=131	=131	=131
*	*	*	*	*^
4rD	.	16gLL	.	.	.
.	.	16f#X	.	.	.
.	.	16en	.	.	.
.	.	16c#XJJ	.	.	.
4rD	.	16B-LL	.	<	.
.	.	16c#	.	.	.
.	.	16e	.	.	.
.	.	16b-JJ	.	.	.
!	!	!LO:TX:b:t=P:problem:"cres" w srodku widelek	!	!	!
8F#X\ 8FF#X\L	.	16cc#XLL	.	.	<
.	.	16een	.	.	.
8En\J 8EEn\	.	16.gg	.	.	.
.	.	32gggJJ)	.	[	.
*	*	*	*	*v	*v
!!LO:LB:g=original
=132	=132	=132	=132	=132
*k[f#c#]	*	*k[f#c#]	*	*
*ped	*	*	*	*
8D\L 8DD\	.	(>16gggLL	.	f>
.	.	16fff#	.	.
8f# 8B 8F#	.	16ff#	.	.
.	.	16ffnJJ)	.	.
*clefG2	*	*	*	*
8bJ 8f# 8B	.	(>16fff#LL	.	.
*Xped	*	*	*	*
.	.	16eee	.	.
8rb	.	16ee	.	.
.	.	16dd#XJJ)	.	.
4rb	.	(>16ddd#yLL	.	.
.	.	16dddn	.	.
.	.	16dd#	.	.
.	.	16cc#JJ)	.	.
*clefF4	*	*	*	*
=133	=133	=133	=133	=133
*ped	*	*	*	*
!LO:TX:t=P:mixed beam:problem	!	!	!	!
8E/L 8EE/	.	(>16ccc#LL	.	.
.	.	16cccn	.	.
8g\J 8B\	.	16ccny	.	.
*Xped	*	*	*	*
.	.	16bJJ)	.	.
4rD	.	(>16bbLL	.	.
.	.	16aa#X	.	.
.	.	16a#y	.	.
.	.	16anJJ	.	.
4rD	.	16aa#LL	.	.
.	.	16gg#X	.	.
*	*	*tuplet	*	*
!	!	!LO:TX:t=P:problem: w tuplecie "3" bez ramki	!	!
!	!	!LO:TUP:a	!	!
.	.	24g#y	.	.
.	.	24gn	.	.
.	.	24gg#JJ	.	]
=134	=134	=134	=134	=134
*	*	*ped	*	*
!LO:TX:t=P:mixed beam:problem	!	!	!	!
8FF#/L 8FFF#/	.	[<4f#)	.	.
8B\ 8C#\	.	.	.	f
*	*	*Xtuplet	*	*
8B\ 8C#\	.	(>12f#/L]	.	.
.	.	12dd	.	.
*	*	*Xped	*	*
8B\ 8C#\	.	.	.	.
.	.	12cc#J	.	.
*	*	*ped	*	*
8A#X\ 8C#\	.	12eL	.	.
.	.	12.f#	.	.
8A#\J 8C#\	.	.	.	.
*	*	*Xped	*	*
.	.	24c#Jk	.	.
=135	=135	=135	=135	=135
.	.	(<4qqc#/)	.	.
*	*	*ped	*	*
!LO:TX:t=P:mixed beam:problem	!	!	!	!
8FFn/L 8FFFn/	.	2d)	.	>
8B\ 8D\	.	.	.	.
8B\ 8D\	.	.	.	.
8B\ 8G\ 8D\	.	.	.	.
8B\ 8G\ 8D\	.	(>8gL	.	<]
*	*	*Xped	*	*
8B\J 8G\ 8D\	.	8ggJ	.	.
!!LO:LB:g=original
=136	=136	=136	=136	=136
*	*	*8va	*	*
*ped	*	*	*	*
8EE 8EEE	.	16aaaLL	.	ff
.	.	16ggg#X	.	.
4cn 4G 4Cn	.	16gggn	.	>
.	.	16ggJJ	.	.
.	.	16gggLL	.	.
.	.	16fff#	.	.
*clefG2	*	*	*	*
8g 8c 8G	.	16ff#	.	.
.	.	16ffnJJ	.	.
8ccny 8g 8c	.	16fff#\LL	.	.
.	.	16eee	.	.
8rb	.	16ee	.	.
*Xped	*	*	*	*
.	.	16dd#XJJ	.	.
*	*	*X8va	*	*
*clefF4	*	*	*	*
=137	=137	=137	=137	=137
*	*	*	*	*^
!	!	!LO:TX:a:t=loco.	!	!	!
*ped	*	*	*	*	*
!LO:TX:t=P:mixed beam:problem	!	!	!	!	!
8EE#X/L 8EEE#X/	.	16ddd#XLL	.	.	.
.	.	16dddn	.	.	.
8g#X\J 8B\	.	16dd	.	.	.
.	.	16cc#XJJ	.	.	.
4rD	.	16ccc#LL	.	.	.
.	.	16cccn	.	.	.
*	*	*tuplet	*	*	*
!	!	!LO:TX:t=P:problem:tuplet bez ramki	!	!	!
!	!	!LO:TUP:a	!	!	!
.	.	24ccny	.	.	>
.	.	24b	.	.	.
.	.	24bbJJ	.	.	.
*	*	*Xtuplet	*	*	*
*Xped	*	*	*	*	*
4rD	.	24aa#XLL	.	.	.
.	.	24a#y	.	.	.
.	.	24anJJ	.	.	.
.	.	24aanLL	.	.	.
.	.	24gg#X	.	.	.
.	.	24g#yJJ	.	]	.
*	*	*	*	*v	*v
=138	=138	=138	=138	=138
*ped	*	*	*	*
4FF# 4FFF#	.	16gnLL	.	>
.	.	16gg	.	.
.	.	16ff#	.	.
.	.	16f#JJ	.	]
!	!	!	!	!LO:DY:rj
4d 4B 4F# 4D	.	16e#X\LL	.	p
.	.	16f#	.	.
*Xped	*	*	*	*
.	.	16f##X	.	.
.	.	16g#XJJ	.	.
4rD	.	16a\LL	.	.
.	.	16a#X	.	.
.	.	16b	.	.
.	.	16cc#JJ	.	.
!!LO:LB:g=original
=139	=139	=139	=139	=139
2.rF	.	16eeLL	.	.
.	.	16dd#X	.	.
.	.	16ddn	.	.
.	.	16a#XJJ	.	.
.	.	16cc#LL	.	.
.	.	16b	.	.
.	.	16b#X	.	.
.	.	16cc#JJ	.	.
.	.	16eeLL	.	.
.	.	16dd	.	.
.	.	16dd#X	.	.
.	.	16eeJJ	.	.
=140	=140	=140	=140	=140
2.rF	.	16ggLL	.	.
.	.	16ee#X	.	.
.	.	16ff#	.	.
.	.	16aa#XJJ	.	.
.	.	16bbLL	.	.
.	.	16aan	.	.
.	.	16gg	.	.
.	.	16ff#JJ	.	.
.	.	16ee#LL	.	.
.	.	16gg	.	.
.	.	16ff#	.	.
.	.	16ddJJ	.	.
=141	=141	=141	=141	=141
2.rF	.	16a#XLL	.	.
.	.	16b	.	.
.	.	16dd	.	.
.	.	16cc#JJ	.	.
!	!	!LO:TX:b:t=dim_e_rall_:dur=20qs:ext=ud:problem:text with extention lines	!	!
.	.	16eeLL	.	.
.	.	16dd	.	.
.	.	16cc#	.	.
.	.	16bJJ	.	.
.	.	16a#\LL	.	.
.	.	16cc#	.	.
.	.	16b	.	.
.	.	16gJJ	.	.
!!LO:LB:g=original
=142	=142	=142	=142	=142
2.rF	.	16e#XLL	.	.
.	.	16f#	.	.
.	.	16b	.	.
.	.	16a#XJJ	.	.
.	.	16f#LL	.	.
.	.	16e#	.	.
.	.	16an	.	.
.	.	16g#XJJ	.	.
.	.	16enLL	.	.
.	.	16d#X	.	.
.	.	16gn	.	.
.	.	16f#JJ	.	.
=143	=143	=143	=143	=143
2.rF	.	16dnLL	.	.
.	.	16c#	.	.
.	.	16fn	.	.
.	.	16eJJ	.	.
.	.	16cnLL	.	.
.	.	16B	.	.
.	.	16d#X	.	.
.	.	16dnJJ	.	.
.	.	16A#<X/LL	.	.
.	.	16c#<X	.	.
.	.	16B<	.	.
.	.	16G<JJ	.	.
=144	=144	=144	=144	=144
2.ryy	.	2.F#</)	.	.
=145	=145	=145	=145	=145
*ped	*	*	*	*
!	!	!LO:S:s=1:note:problem:note-level slur	!	!
2.FF#\ 2.FFF#\	.	(>2.d</ 2.B</ 2.G</ 2.E#<X/	.	.
*Xped	*	*	*	*
.	.	.	.	.
=146	=146	=146	=146	=146
2.ryy	.	N[>2.F#</)	.	.
!!LO:LB:g=original
=147	=147	=147	=147	=147
*ped	*	*	*	*
2.F#N] 2.C#\ 2.FF#\	.	(>2.f# 2.e 2.A#<X	.	.
*Xped	*	*	*	*
.	.	.	.	.
=148	=148	=148	=148	=148
*k[f#c#g#d#a#]	*	*k[f#c#g#d#a#]	*	*
!	!	!LO:TX:a:B:t=poco più lento	!	!
*ped	*	*	*	*
4BB\ 4FF#\ 4BBB\	.	4f# 4d# 4B< 4F#<	.	pp
*Xped	*	*	*	*
.	.	.	.	.
*ped	*	*	*	*
4C#\ 4FF#\ 4BBB\	.	4f# 4e 4A#< 4F#<	.	.
*Xped	*	*	*	*
.	.	.	.	.
*ped	*	*	*	*
4D#\ 4FF#\ 4BBB\	.	4f# 4d# 4B< 4F#<	.	<
*Xped	*	*	*	*
.	.	.	.	.
=149	=149	=149	=149	=149
*ped	*	*	*	*
4C#\ 4FF#\ 4BBB\	.	4f#) 4e 4A#< 4F#<	.	.
*Xped	*	*	*	*
.	.	.	.	.
*ped	*	*	*	*
\4D# 4FF#\ 4BBB\	.	(>4f# 4d# 4B< 4F#<	.	.
*Xped	*	*	*	*
.	.	.	.	.
*ped	*	*	*	*
4BB\ 4FF#\ 4BBB\	.	4b 4d# 4B<	.	.
*Xped	*	*	*	*
.	.	.	.	.
=150	=150	=150	=150	=150
*ped	*	*	*	*
2FF# 2FFF#	.	2dd# 2b 2f# 2d#	.	.
.	.	.	.	[
4F# 4FF#	.	4dd# 4b 4f# 4d#	.	.
*Xped	*	*	*	*
.	.	.	.	.
=151	=151	=151	=151	=151
4G#\ 4C#\ 4FF#\	.	4cc# 4b 4e#X 4c#	.	.
*ped	*	*	*	*
!LO:TX:t=P:problem:pionowy luk miedzy 2A# i 2FF#	!	!	!	!
2A#tt>\ 2C#\ 2FF#\	.	4dd# 4f# 4en	.	>
.	.	4f# 4e 4c# 4F#<	.	]
*Xped	*	*	*	*
.	.	.	.	.
16qqG#ttt/LL	.	.	.	.
16qqA#/JJ	.	.	.	.
=152	=152	=152	=152	=152
.	.	[<8qd# [<8qB< [<8qF#</	.	.
*ped	*	*	*	*
(>\8BBBL	.	4b) 4d#] 4B<] 4F#<]	.	.
!	!	!LO:TX:B:b:t=sempre piano.	!	!
!	!	!LO:TX:B:b:t=sostenuto.	!	!
8FF#	.	.	.	.
8BB	.	4rb	.	.
*Xped	*	*	*	*
8C#	.	.	.	.
8D#	.	4rb	.	.
8G#J)	.	.	.	.
!!LO:PB:g=original
=153	=153	=153	=153	=153
*^	*	*	*	*
!	!	!	!LO:TX:B:b:t=e legato.:rj	!	!
8rcyy	8F#\L	.	N(>4r	.	.
!LO:TX:t=P:mixed beam:problem	!	!	!	!	!
8B/L 8F#/	8D#	.	.	.	.
8d#>\	8C#	.	4f#	.	.
8B/ 8F#/	8D#	.	.	.	.
8d#>\	8C#	.	4g#	.	.
8B/J 8F#/	8BBJ)	.	.	.	.
=154	=154	=154	=154	=154	=154
!	!	!	!	!	!LO:HP:a
*ped	*	*	*	*	*
!LO:TX:t=P:mixed beam:problem	!	!	!	!	!
8e>\L	8GGG#L	.	4g#	.	>
8B/ 8F#/	8FF#	.	.	.	.
8e>\	8C#	.	[>2f#	.	]
*Xped	*	*	*	*	*
8A#/ 8F#/	8D#	.	.	.	.
8e>\N)	8E	.	.	.	.
8A#/J	8G#J	.	.	.	.
=155	=155	=155	=155	=155	=155
!LO:TX:t=P:mixed beam:problem	!	!	!	!	!
8d#>\L	8F#L	.	N(>4f#]	.	.
8B/ 8F#/	8D#	.	.	.	.
!	!	!	!	!	!LO:HP:a
8d#>\	8C#	.	4f#	.	<
8B/ 8F#/	8D#	.	.	.	.
8d#>\	8C#	.	4g#	.	.
8B/J 8F#/	8BBJ	.	.	.	[
=156	=156	=156	=156	=156	=156
!	!	!	!	!	!LO:HP:a
*ped	*	*	*	*	*
!LO:TX:t=P:mixed beam:problem	!	!	!	!	!
8e>\L	8FFF#L	.	4g#	.	>
8B/ 8F#/	8FF#	.	.	.	.
8e>\	8C#	.	[>2f#	.	]
*Xped	*	*	*	*	*
8A#/ 8F#/	8D#	.	.	.	.
8e>\	8E	.	.	.	.
8A#/JN)	8G#J	.	.	.	.
=157	=157	=157	=157	=157	=157
!LO:TX:t=P:mixed beam:problem	!	!	!	!	!
8d#>\L	8F#L	.	N(>4f#]	.	.
8B/ 8F#/	8D#	.	.	.	.
!	!	!	!	!	!LO:HP:a
8d#>\	8C#	.	4f#	.	<
8B/ 8F#/	8D#	.	.	.	.
8d#>\	8C#	.	4g#	.	.
8B/J 8F#/	8BBJ	.	.	.	.
=158	=158	=158	=158	=158	=158
*	*	*	*^	*	*
*ped	*	*	*	*	*	*
8ryy	8DD#L	.	2a#	4f#	.	[<
8d#L 8A#	8AA#	.	.	.	.	.
8ryy	8D#	.	.	4f#	.	.
*Xped	*	*	*	*	*	*
8d# 8A#	8E#X	.	.	.	.	.
!	!	!	!LO:TX:t=P:problem:brak poczatku ligatury	!	!	!
8ryy	8F#	.	[>4a#	4f#	.	.
8d#J	8BJ	.	.	.	.	.
*	*	*	*v	*v	*	*
!!LO:LB:g=original
=159	=159	=159	=159	=159	=159
*ped	*	*	*	*	*
!LO:TX:t=P:mixed beam:problem	!	!	!	!	!
8f#>\L	8A#L	.	4a#]	.	.
8d#/ 8A#/	8F#	.	.	.	.
*Xped	*	*	*	*	*
8f#>\	8E#X	.	4a#	.	.
8d#/ 8A#/	8F#	.	.	.	.
8f#>\	8E#	.	4b#X/	.	.
8d#/J 8A#/	8D#J	.	.	.	[
*v	*v	*	*	*	*
=160	=160	=160	=160	=160
*	*	*^	*	*
*ped	*	*	*	*	*
(>8EEE#X\L	.	4cc##X	8a#L	.	>
8EE#X	.	.	8e#X 8c##X	.	.
8AA#	.	[>2cc##	8a#	.	.
8E#y	.	.	8e# 8c##	.	.
*Xped	*	*	*	*	*
8A#	.	.	8a#	.	.
8F##XJ	.	.	8e#JN) 8c##	.	.
=161	=161	=161	=161	=161	=161
*ped	*	*	*	*	*
8E#X\L	.	(>4cc##X]	8a#L	.	.
8C##X	.	.	8e#X 8c##X	.	.
8AA#	.	4cc##	8a#	.	]
*Xped	*	*	*	*	*
8FF##X	.	.	8f##X 8c##	.	<
*ped	*	*	*	*	*
8EE#X	.	4cc##	8g##X	.	.
8EEE#yJ)	.	.	8e#J 8d#	.	.
*Xped	*	*	*	*	*
.	.	.	.	.	.
=162	=162	=162	=162	=162	=162
*ped	*	*	*	*	*
(>8AAA#\L	.	4cc##X	8g##XL	.	.
*Xped	*	*	*	*	*
8EE#X	.	.	8e#X 8c##X	.	.
*ped	*	*	*	*	*
8AA#	.	[>2cc##	8a#	.	[
8E#X	.	.	8e# 8c##	.	>
8A#	.	.	8a#	.	.
*Xped	*	*	*	*	*
8F##XJ	.	.	8e#J) 8c##	.	.
=163	=163	=163	=163	=163	=163
*ped	*	*	*	*	*
8E#X\L	.	(>4cc##X]	8a#L	.	.
8C##X	.	.	8e#X 8c##X	.	.
8AA#	.	4cc##	8a#	.	.
*Xped	*	*	*	*	*
8FF##X	.	.	8f##X 8c##	.	.
*ped	*	*	*	*	*
8EE#X	.	4cc##	8g##X	.	.
8EEE#yJ)	.	.	8e#J 8d#	.	]
*	*	*v	*v	*	*
!!LO:LB:g=original
=164	=164	=164	=164	=164
*ped	*	*	*	*
8AAA#\L	.	8cc##X\ 8g##X\L	.	.
*Xped	*	*	*	*
8EE#X	.	8e#X 8c##X	.	.
*ped	*	*	*	*
8AA#	.	8cc## 8a#	.	.
8E#X	.	8e# 8c##	.	.
*Xped	*	*	*	*
8F#	.	8cc## 8a#	.	.
8E#J	.	8e#J 8c##	.	.
=165	=165	=165	=165	=165
*^	*	*	*	*
2rcyy	8D#\L	.	8a#L 8f#	.	<
.	8C##X	.	8e#X 8A#<	.	.
.	8C#X	.	8en 8F##<X	.	.
.	8BB#X	.	8d# 8G##<X	.	.
4A#\	8AA#	.	8c##X 8A#<	.	.
.	8DD#J	.	8f##XJ 8d#	.	[
*v	*v	*	*	*	*
=166	=166	=166	=166	=166
[>2.AAA#\	.	8e#XL 8c##X	.	>
.	.	8A#< 8E#<X	.	.
.	.	8e# 8c##	.	.
.	.	8c#X 8E#<	.	.
.	.	8e# 8c##X	.	.
.	.	8A#<J 8E#<	.	]
=167	=167	=167	=167	=167
*	*	*	*	*^
!	!	!	!	!	!LO:HP:b=2
(>\4AAA#]	.	8f#L 8c##X	.	<	<
.	.	8c#X 8F#<	.	.	.
[>2BBB\)	.	8f# 8dn	.	.	[
.	.	8B< 8F#<	.	.	.
.	.	8f# 8d#X	.	.	.
.	.	8c##XJ) 8F#<	.	[	.
*	*	*	*	*v	*v
=168	=168	=168	=168	=168
*	*	*^	*	*
*ped	*	*	*	*	*
!	!	!	!LO:TX:b:t=P:mixed beam:problem	!	!
8BBB\L]	.	(>4f#	8d#\L	.	>
8FF#	.	.	8B</ 8F#</	.	.
!	!	!	!LO:TX:B:b:t=sempre	!	!
8BB	.	2raayy	8f#\ 8d#\	.	]
*Xped	*	*	*	*	*
8C#	.	.	8B</ 8F#</	.	.
8D#	.	.	8f#\ 8d#\	.	.
!	!	!	!	!	!LO:DY:rj
8G#J	.	.	8B</J	.	p
!!LO:LB:g=original
=169	=169	=169	=169	=169	=169
!	!	!	!LO:TX:t=P:mixed beam:problem	!	!
8F#\L	.	4.rcccyy	8f#\L 8d#\	.	.
8D#	.	.	8B</ 8F#</	.	.
8C#	.	.	8f#\) 8d#\	.	.
8D#	.	(>8bL	8B</	.	.
!	!	!	!	!	!LO:HP:a
8C#	.	8.a#	8d#\	.	>
8BBJ	.	.	8B</J 8F#</	.	.
.	.	16g#Jk	.	.	.
=170	=170	=170	=170	=170	=170
*ped	*	*	*	*	*
!	!	!	!LO:TX:t=P:mixed beam:problem	!	!
8FFF#\L	.	4g#	8e\L	.	.
8FF#	.	.	8B</ 8F#</	.	.
8C#	.	[>2f#	8e\	.	]
*Xped	*	*	*	*	*
8D#	.	.	8A#< 8F#<	.	.
8E	.	.	8e\	.	.
8G#J	.	.	8A#</J)	.	.
=171	=171	=171	=171	=171	=171
!	!	!	!LO:TX:t=P:mixed beam:problem	!	!
8F#\L	.	4.f#]	8d#\L	.	.
8D#	.	.	8B</ 8F#</	.	.
8C#	.	.	8d#\	.	.
8D#	.	(>8bL	8B</	.	.
!	!	!	!	!	!LO:HP:a
8C#	.	8.a#	8d#\	.	>
8BBJ	.	.	8B</J 8F#</	.	.
.	.	16g#Jk	.	.	.
=172	=172	=172	=172	=172	=172
*ped	*	*	*	*	*
!	!	!	!LO:TX:t=P:mixed beam:problem	!	!
8FFF#\L	.	4g#	8e\L	.	.
8FF#	.	.	8B</ 8F#</	.	.
*Xped	*	*	*	*	*
8C#	.	[>2f#	8e\	.	]
8D#	.	.	8A#</ 8F#</	.	.
8E	.	.	8e\	.	.
8G#J	.	.	8A#</J)	.	.
*	*	*v	*v	*	*
=173	=173	=173	=173	=173
*^	*	*	*	*
!LO:TX:t=P:mixed beam:problem	!	!	!	!	!
8d#>\L	8F#L	.	4f#]	.	.
8B/ 8F#/	8D#	.	.	.	<
8d#>\	8C#	.	(>4f#	.	.
8B/ 8F#/	8D#	.	.	.	.
8d#>\	8C#	.	8.f#L	.	.
8B/J 8F#/	8BBJ	.	.	.	.
.	.	.	16g#Jk	.	[[
*v	*v	*	*	*	*
=174	=174	=174	=174	=174
*	*	*^	*	*
*ped	*	*	*	*	*
!	!	!	!LO:TX:t=P:mixed beam:problem	!	!
8BBB\L	.	4an	8d#\L	.	.
8FF#	.	.	8B</ 8F#</	.	.
8BB	.	2raayy	8a\ 8d#\	.	.
8C#	.	.	8B</ 8F#</	.	.
8D#	.	.	8a\	.	.
*Xped	*	*	*	*	*
8cnJ	.	.	8F#</J	.	.
!!LO:LB:g=original
=175	=175	=175	=175	=175	=175
*ped	*	*	*	*	*
!	!	!	!LO:TX:t=P:mixed beam:problem	!	!
8BL	.	2raayy	8an\L 8d#\	.	.
8G#	.	.	8B</	.	.
8F#	.	.	8a\ 8d#\	.	.
8G#	.	.	8B</ 8A</	.	<
*Xped	*	*	*	*	*
8F#	.	8.aL	8e\	.	.
8EJ	.	.	8B</ 8G<#J	.	.
.	.	16g#Jk	.	.	.
*	*	*v	*v	*	*
=176	=176	=176	=176	=176
*ped	*	*	*	*
(>8Dn\L	.	8bL 8f#	.	.
*Xped	*	*	*	*
8DDny	.	8B< 8F#<	.	.
*ped	*	*	*	*
8CC#	.	8b 8f#	.	[
8C#	.	8c# 8B	.	.
8G#	.	8b 8e#X	.	.
*Xped	*	*	*	*
8d#XJ	.	8BJ	.	.
=177	=177	=177	=177	=177
*	*	*^	*	*
8c#L	.	4b	8e#XL	.	.
8G#	.	.	8c# 8B	.	[
8Gn	.	4b	8en	.	.
8An	.	.	8c# 8B	.	.
8G	.	4a#X	8e	.	.
8F#J	.	.	8c#J 8A#X	.	.
!	!	!	!	!	!LO:HP:t=dim
.	.	.	.	.	>
=178	=178	=178	=178	=178	=178
8E#XL	.	4a#	8e#XL	.	.
8F#	.	.	8c# 8A#	.	.
8E#	.	4a#	8f#	.	.
8En	.	.	8c# 8A#	.	.
8D#	.	4a#	8f##X	.	.
8EJ	.	.	8c#J 8A#	.	.
=179	=179	=179	=179	=179	=179
8D#\L	.	4a#	8f##XL	.	.
8C##X	.	.	8c##X 8A#	.	.
8C#X	.	4a#	8f##	.	.
8D#	.	.	8d# 8A#	.	.
8C#	.	4a#	8f##	.	.
8CnJ)	.	.	8eJ 8A#	.	.
*	*	*v	*v	*	*
!!LO:LB:g=original
=180	=180	=180	=180	=180
!	!	!	!	!LO:DY:rj
4Gn'> 4BB'>	.	4b 4e 4B	.	pp
4G'> 4AA#X'>	.	4ccn) 4e 4cn	.	.
8rD;>	.	8r;>	.	.
8rD	.	(>8B#X	.	.
=181	=181	=181	=181	=181
2.rF	.	4c#	.	.
!	!	!LO:TX:B:a:t=ten.	!	!
.	.	4.e	.	>
.	.	8d#)	.	]
=182	=182	=182	=182	=182
*ped	*	*	*	*
8FF##X	.	(>2a#	.	p
4d# 4c# 4A# 4D#	.	.	.	.
8d#L 8c# 8A# 8D#	.	.	.	.
8d# 8c# 8A# 8D#	.	8.g#L	.	.
*Xped	*	*	*	*
8d#J 8c# 8A# 8D#	.	.	.	.
.	.	16a#Jk	.	.
=183	=183	=183	=183	=183
*ped	*	*	*	*
8GG#	.	16bLL	.	.
.	.	16a#	.	.
4d# 4B 4G# 4D#	.	16g#	.	.
.	.	16eeJJ	.	.
.	.	4dd#)	.	.
8d#L 8B 8G# 8D#	.	.	.	.
8d# 8B 8G# 8D#	.	4rb	.	.
*Xped	*	*	*	*
8d#J 8B 8G# 8D#	.	.	.	.
=184	=184	=184	=184	=184
*ped	*	*	*	*
8FF##XL	.	(>2a#	.	.
8d# 8c# 8A# 8D#	.	.	.	.
8d# 8c# 8A# 8D#	.	.	.	.
8d# 8c# 8A# 8D#	.	.	.	.
8d# 8c# 8A# 8D#	.	8.g#L	.	.
8d#J 8c# 8A# 8D#	.	.	.	.
.	.	16a#Jk	.	.
=185	=185	=185	=185	=185
*ped	*	*	*	*
8GG#	.	16bLL	.	.
.	.	16g#	.	.
*	*	*tuplet	*	*
!	!	!LO:TUP:a	!	!
!	!	!LO:TX:t=P:problem:w tuplecie "3" bez ramki	!	!
4d# 4B 4G# 4D#	.	24ff#	.	.
.	.	24ee	.	.
.	.	24dd#JJ	.	.
.	.	2dd#)	.	.
8d#L 8B 8G# 8D#	.	.	.	.
8d# 8B 8G# 8D#	.	.	.	.
*Xped	*	*	*	*
8d#J 8B 8G# 8D#	.	.	.	.
!!LO:PB:g=original
=186	=186	=186	=186	=186
*	*	*	*	*^
*ped	*	*	*	*	*
8BBL 8BBB	.	(>4.dd#	.	<	.
8d# 8B 8F# 8D#	.	.	.	.	.
8d# 8B 8F# 8D#	.	.	.	.	.
8d# 8B 8F# 8D#	.	16cc#LL	.	.	.
*Xped	*	*	*	*	*
.	.	16bJJ	.	.	.
!	!	!LO:TX:t=P:problem:"cres." miedzy widelkami	!	!	!
8d# 8B 8F# 8D#	.	16a#\LL	.	.	<
.	.	16cc#	.	.	.
8d#J 8B 8F##X 8D#	.	16b	.	.	.
.	.	16a#JJ	.	.	.
=187	=187	=187	=187	=187	=187
*^	*	*	*	*	*
*ped	*	*	*	*	*	*
!LO:N:n=1:vis=2.	!	!	!	!	!	!
8E\ 8EE\L	/2.E	.	8.a#L	.	.	.
8e 8B 8G#	.	.	.	.	.	.
.	.	.	16g#Jk	.	[	.
8e 8B 8G#	.	.	4..gg#	.	.	.
8e 8B 8G#	.	.	.	.	.	.
*Xped	*	*	*	*	*	*
8e 8B 8G#	.	.	.	.	.	.
8eJ 8B#X 8G#	.	.	.	.	.	.
.	.	.	16ff#	.	>	.
*	*	*	*	*	*v	*v
=188	=188	=188	=188	=188	=188
8rB	2E	.	16ff#LL	.	.
.	.	.	16ee	.	.
4e\ 4c#\ 4G#\	.	.	16b	.	.
.	.	.	16cc#JJ	.	.
.	.	.	16eeLL	.	.
.	.	.	16dd#	.	.
8e\ 8c#\ 8G#\	.	.	16a#	.	.
.	.	.	16bJJ	.	.
4E	8EL	.	16dd#\LL	.	.
.	.	.	16cc#	.	.
.	8c#J 8G#	.	16f##X	.	.
.	.	.	16g#JJ	.	]
*v	*v	*	*	*	*
=189	=189	=189	=189	=189
*ped	*	*	*	*
8D#L 8DD#	.	2a#)	.	.
8f##X 8d# 8A# 8F##X	.	.	.	.
8f## 8d# 8A# 8F##	.	.	.	.
*Xped	*	*	*	*
8f#XJ 8d# 8A# 8F#X	.	.	.	<
*ped	*	*	*	*
8C#L 8CC#	.	(>8.bL	.	.
*Xped	*	*	*	*
8eJ 8A# 8F#	.	.	.	.
.	.	16cc#Jk	.	.
!!LO:LB:g=original
=190	=190	=190	=190	=190
*ped	*	*	*	*
8BB\L 8BBB\	.	8dd#L	.	.
*Xped	*	*	*	*
8d#J 8B 8F#	.	8gg#J	.	.
*ped	*	*	*	*
8AA#L 8AAA#	.	4.ff#	.	[
8c# 8F#	.	.	.	.
8c# 8F#	.	.	.	.
*Xped	*	*	*	*
8c#J 8F#	.	8cc#	.	.
=191	=191	=191	=191	=191
*ped	*	*	*	*
8GG#L	.	16a#LL	.	.
.	.	16b	.	>
8eJ 8B 8G#	.	16ff#	.	.
*Xped	*	*	*	*
.	.	16ffnJJ	.	.
*ped	*	*	*	*
8FF##XL	.	16eeLL	.	.
.	.	16dd#	.	.
8d# 8A# 8D#	.	16g##X	.	.
.	.	16a#JJ	.	.
8d# 8A# 8D#	.	8dd#)	.	.
*Xped	*	*	*	*
8d#J 8A# 8D#	.	8rb	.	]
=192	=192	=192	=192	=192
*ped	*	*	*	*
8FF#X\L	.	(>8anL	.	<
*Xped	*	*	*	*
8dnJ 8An 8F#	.	8ddnJ	.	.
*ped	*	*	*	*
8EE#XL	.	4.cc#	.	[
8c# 8G# 8C#	.	.	.	.
8c# 8G# 8C#	.	.	.	.
*Xped	*	*	*	*
8c#J 8G# 8C#	.	8g#	.	.
=193	=193	=193	=193	=193
*ped	*	*	*	*
8EEn	.	16f##X\LL	.	.
.	.	16g#	.	.
!	!	!	!	!LO:HP:b=2
4c# 4G# 4E	.	16dd#	.	>
.	.	16cc#JJ	.	.
.	.	16bLL	.	.
.	.	16a#	.	.
4c# 4G# 4E	.	16cc#	.	]
*Xped	*	*	*	*
.	.	16bJJ	.	.
.	.	16a#\LL	.	.
.	.	16g#	.	.
8c# 8G# 8E	.	16b	.	.
.	.	16a#JJ)	.	.
!!LO:LB:g=original
=194	=194	=194	=194	=194
*^	*	*	*	*
*ped	*	*	*	*	*
!	!LO:N:vis=2.	!	!	!	!
2.E/	(>\8EL	.	(>[>2g#	.	>
.	8c# 8A# 8F#	.	.	.	.
.	8c# 8A# 8F#	.	.	.	.
.	8c# 8A# 8F#	.	.	.	.
.	8c# 8A# 8F#	.	8.g#L]	.	]
*Xped	*	*	*	*	*
.	8c#J 8A# 8F#	.	.	.	.
.	.	.	16f#Jk)	.	.
*v	*v	*	*	*	*
=195	=195	=195	=195	=195
4d#) 4B 4F# 4D#	.	(>16.f#\LL	.	.
.	.	32g#k	.	<
.	.	16.g#	.	.
.	.	32a#JJk	.	.
4rD	.	16.a#LL	.	.
.	.	32bk	.	.
.	.	16.b	.	.
.	.	32cc#JJk	.	.
4rD	.	16.cc#LL	.	.
.	.	32cc##Xk	.	.
.	.	16.cc##	.	.
.	.	32dd#JJk	.	.
=196	=196	=196	=196	=196
*ped	*	*	*	*
8C#L 8CC#	.	8dd#L	.	.
*clefG2	*	*	*	*
8b 8e#X 8B	.	8g#J	.	[
8b 8e# 8B	.	4.dd#	.	.
8b 8e# 8B	.	.	.	.
8b 8e# 8B	.	.	.	.
8bJ 8e# 8B	.	8cc#)	.	.
=197	=197	=197	=197	=197
!	!	!LO:TX:t=P:problem:łuk kończy się pod nutą	!	!
4b 4e#y 4c# 4B	.	(>16b#XLL	.	>
.	.	16cc#	.	.
.	.	8qcc#/	.	.
.	.	16ddd#	.	.
.	.	16ccc#JJ	.	.
4rb	.	16bbnLL	.	.
.	.	16gg#	.	.
.	.	16dd#	.	.
.	.	16cc#JJ	.	.
4rb	.	16b#LL	.	.
.	.	16g#	.	.
.	.	16c#	.	.
.	.	16d#JJ	.	]
*clefF4	*	*	*	*
!!LO:LB:g=original
=198	=198	=198	=198	=198
*^	*	*	*	*
!	!LO:TX:t=P:problem:w pierwodruku wyglada tak jakby byla podwojna ligatura na FF#, ale to raczej nie ma sensu.	!	!LO:TX:t=P:problem:luk konczy sie w dol	!	!
(<8BL	[>2.C# [<2.FF#	.	2.e)	.	.
8F#J	.	.	.	.	>
4.B	.	.	.	.	.
8A#)	.	.	.	.	]
*v	*v	*	*	*	*
=199	=199	=199	=199	=199
*	*	*^	*	*
!	!	!LO:TX:b:t=P:problem:pionowy luk miedzy 16d# i 4A#	!	!	!
*ped	*	*	*	*	*
4A#\ 4C#\] 4FF#\]	.	(>16d#LL	16rGyy	.	.
.	.	16e	2e	.	.
.	.	16dd#	.	.	.
.	.	16cc#JJ	.	.	.
4rD	.	16dd#LL	.	.	pp
.	.	16cc#	.	.	.
.	.	16dd#	.	.	.
.	.	16cc#JJ	.	.	.
4rD	.	16dd#LL	.	.	.
.	.	16cc#	8.rByy	.	.
.	.	16dd#	.	.	.
.	.	16cc#JJ	.	.	.
*	*	*v	*v	*	*
=200	=200	=200	=200	=200
16f#>LL	.	16dd#/LL	.	.
16e>	.	16cc#	.	.
16f#>	.	16dd#	.	.
16e>JJ	.	16cc#JJ	.	.
16f#>LL	.	16dd#/LL	.	.
16e>	.	16cc#	.	.
16f#>	.	16dd#	.	.
16e>JJ	.	16cc#JJ	.	.
*tuplet	*	*	*	*
24f#>LL	.	24dd#/LL	.	.
24e>	.	24cc#	.	.
24f#>	.	24dd#	.	.
24e>	.	24cc#	.	.
24f#>	.	24dd#	.	.
24e>JJ	.	24cc#JJ)	.	.
=201	=201	=201	=201	=201
2.e>TT>	.	2.cc#TT>/	.	.
=202	=202	=202	=202	=202
!	!	!LO:TX:B:b:t=poco\ a\ poco:dur=3q:ext=s:problem:text with extention lines	!	!
16.f#>LL	.	(>16.dd#/LL 16.b/	.	.
32e>	.	32cc#k 32a#	.	.
16f#>	.	16dd# 16b	.	.
16e>JJ	.	16cc#JJ 16a#	.	.
16f#>LL	.	16dd#/LL 16b/	.	.
16e>	.	16cc# 16a#	.	.
16f#>	.	16dd# 16b	.	.
16e>JJ	.	16cc#JJ 16a#	.	.
24f#>LL	.	24dd#/LL 24b/	.	.
24e>	.	24cc# 24a#	.	.
24f#>	.	24dd# 24b	.	.
24e>	.	24cc# 24a#	.	.
24f#>	.	24dd# 24b	.	.
24e>JJ	.	24cc#JJ) 24a#	.	.
!!LO:LB:g=original
=203	=203	=203	=203	=203
*	*	*^	*	*
2.eT>	.	2.cc#T>/	2.a#t</	.	.
*	*	*v	*v	*	*
=204	=204	=204	=204	=204
16f#>LL	.	(>16dd#/LL 16b/	.	<
16e> 16c#>	.	16cc# 16a#	.	.
16f#>	.	16dd# 16b	.	.
16e>JJ 16c#>	.	16cc#JJ 16a#	.	.
16f#>LL	.	16dd#/LL 16b/	.	.
16e> 16c#>	.	16cc# 16a#	.	.
16f#>	.	16dd# 16b	.	.
16e>JJ 16c#>	.	16cc#JJ 16a#	.	.
24f#>LL	.	24dd#/LL 24b/	.	.
24e> 24c#>	.	24cc# 24a#	.	.
24f#>	.	24dd# 24b	.	.
24e> 24c#>	.	24cc# 24a#	.	.
24f#>	.	24dd# 24b	.	.
24e>JJ 24c#>	.	24cc#JJ) 24a#	.	.
=205	=205	=205	=205	=205
*	*	*	*	*^
*	*	*^	*	*	*
2eT> 2c#	.	2cc#T>/	2.a#t<\	.	.	.
!	!	!LO:TX:b:B:t=simile	!	!	!	!
!	!	!LO:TX:t=P:problem:bledne wyswietlanie	!	!	!	!
.	.	.	.	.	.	.
(<8qqd#>\L'<	.	(>8qqb#X'>L 8qqg##X/'>	.	.	<	.
8qqe>\'<	.	8qqcc#'> 8qqa#/'>	.	.	.	.
*Xped	*	*	*	*	*	*
8qqf#>\'<	.	8qqdd#'> 8qqa#/'>	.	.	.	.
8qqe>\'<	.	8qqcc#'> 8qqa#/'>	.	.	.	.
8qqc#>\J'<)	.	8qqee'>J 8qqa#/')	.	.	[	.
*ped	*	*	*	*	*	*
8e> 8F#	.	8ggn)> 8a#	.	.	fz	.
16rA	.	16r	.	.	.	>
16FF#\	.	(>16e 16A#<	.	.	.	.
*Xped	*	*	*	*	*	*
.	.	.	.	.	.	.
*	*	*v	*v	*	*	*
=206	=206	=206	=206	=206	=206
*^	*	*	*	*	*
*ped	*	*	*	*	*	*
N[>2.B 2.F#	(>8BBBL	.	4e	.	fz	.
*Xped	*	*	*	*	*	*
.	8FF#	.	.	.	.	.
!	!	!	!	!	!LO:DY:rj	!
!	!LO:TX:t=P:dwa razy wyświetla się "p":problem	!	!	!	!	!
.	8BB	.	[>2d#	.	p	.
.	8C#	.	.	.	.	.
.	8D#	.	.	.	.	.
.	8G#J	.	.	.	.	]
*v	*v	*	*	*	*	*
*	*	*	*	*v	*v
=207	=207	=207	=207	=207
8F#\L	.	2.d#)] 2.B<N] 2.F#<	.	.
8D#	.	.	.	.
8C#	.	.	.	.
8D#	.	.	.	.
8C#	.	.	.	.
8BBJ)	.	.	.	.
!!LO:LB:g=original
=208	=208	=208	=208	=208
*^	*	*	*	*
*ped	*	*	*	*	*
(>2B 2F#	(>8BBBL	.	(>2.e	.	.
.	8FF#	.	.	.	.
*Xped	*	*	*	*	*
.	8C#	.	.	.	.
.	8D#	.	.	.	.
4A#	8E	.	.	.	.
.	8G#J	.	.	.	.
=209	=209	=209	=209	=209	=209
4qqA#/	.	.	.	.	.
!	!	!	!LO:S:s=1:note:problem:note-level slur	!	!
2.B)	8F#L	.	2.d#) 2.F#<	.	.
.	8D#	.	.	.	.
.	8C#	.	.	.	.
.	8D#	.	.	.	.
.	8C#	.	.	.	.
.	8BBJ)	.	.	.	.
*v	*v	*	*	*	*
=210	=210	=210	=210	=210
(>8BBB\L	.	(>[>2.e 2.B< 2.F#<	.	.
8FF#	.	.	.	.
8C#	.	.	.	.
!	!	!LO:TX:b:t=dim _:problem:dynamics with extention lines	!	!LO:HP:t=dim:ext=ud
!	!	!	!	!LO:HP:t=dim:ext=ud
8D#	.	.	.	>
8E	.	.	.	.
8G#J	.	.	.	.
=211	=211	=211	=211	=211
!	!	!LO:N:n=2:vis=2.	!	!
!	!	!LO:N:n=3:vis=2.	!	!
8F#\L	.	[>2e] 2A#< 2F#<	.	.
8D#	.	.	.	.
8C#	.	.	.	.
8D#	.	.	.	.
8C#	.	8eL]	.	.
8BBJ	.	8d#J	.	.
=212	=212	=212	=212	=212
*^	*	*	*	*
4qqA#/	.	.	.	.	.
2B/	8D#L	.	2d#) 2F#<	.	.
.	8BB	.	.	.	.
.	8GG#	.	.	.	.
.	8BB	.	.	.	.
4rA	8GG#	.	4rgyy	.	.
.	8FF#J	.	.	.	.
*v	*v	*	*	*	*
=213	=213	=213	=213	=213
8BB\L	.	2.rdd	.	.
8GG#	.	.	.	.
8FF#	.	.	.	.
8GG#	.	.	.	.
8FF#	.	.	.	.
8DD#J	.	.	.	]]
!!LO:PB:g=original
=214	=214	=214	=214	=214
*	*	*^	*	*
*ped	*	*	*	*	*
!LO:TX:t=P:problem:brak zakonczenia luku	!	!	!	!	!
4BB\) 4BBB\	.	(<16bKL	4B	.	.
*Xped	*	*	*	*	*
.	.	8.f#J)	.	.	pp
*ped	*	*	*	*	*
2Dn\;< 2DDn\	.	2f#;>) 2dn 2A<	2ryy	.	<
!LO:TX:t=P:problem:bledne wyswietlanie malych nut i zmian dynamiki	!	!	!	!	!
.	.	(>4qqDDDn<\	.	.	.
.	.	4qqDD#<\	.	.	.
.	.	4qqAAn<\	.	.	.
.	.	4qqD#</	.	.	.
.	.	4qqAny</	.	.	.
.	.	4qqd/	.	.	.
.	.	4qqe/	.	.	.
.	.	4qqgn/	.	.	.
.	.	4qqf#/	.	.	.
.	.	4qqan/	.	.	[>
.	.	4qqdd#/	.	.	.
.	.	4qqee/	.	.	.
.	.	4qqggny/	.	.	.
.	.	4qqff#/	.	.	.
.	.	4qqaany/	.	.	.
.	.	4qqdddny/	.	.	.
.	.	4qqeee/	.	.	.
.	.	4qqgggny/	.	.	.
.	.	4qqfff#\)	.	.	.
*Xped	*	*	*	*	*
.	.	2qqr;>	.	.	.
.	.	.	.	.	]
=215	=215	=215	=215	=215	=215
*ped	*	*	*	*	*
4AAn\ 4AAAn\	.	(<16a#KL	4c# 4A#	.	<
*Xped	*	*	*	*	*
.	.	8.eJ)	.	.	.
*ped	*	*	*	*	*
2Cn\;< 2CCn\	.	2e;> 2cn 2Gn<	2ryy	.	[
!LO:TX:t=P:problem:bledne wyswietlanie w calym takcie: dynamika (nie wyswietla sie "f" i "dim.") i male nuty (te znajdujace sie na dolnej piecolinii sa w zlym miejscu)	!	!	!	!	!
.	.	(>4qqEEEny<\	.	.	f
.	.	4qqCC#<\	.	.	.
.	.	4qqGGn<\	.	.	.
.	.	4qqCny</	.	.	.
.	.	4qqG</	.	.	.
.	.	4qqc/	.	.	.
.	.	4qqdn/	.	.	.
.	.	4qqfn/	.	.	.
.	.	4qqe/	.	.	.
.	.	4qqgny/	.	.	.
.	.	4qqccny/	.	.	.
.	.	4qqddny/	.	.	.
.	.	4qqff#/	.	.	>
.	.	4qqee/	.	.	.
.	.	4qqggny/	.	.	.
.	.	4qqcccny/	.	.	.
.	.	4qqdddny/	.	.	.
.	.	4qqfff#/	.	.	.
.	.	4qqeee\)	.	.	.
*Xped	*	*	*	*	*
.	.	2qqr;>	.	.	.
.	.	.	.	.	.
*	*	*v	*v	*	*
=216	=216	=216	=216	=216
*k[b-e-a-d-]	*	*k[b-e-a-d-]	*	*
!	!	!	!	!LO:DY:rj
8rD	.	(>2g	.	pp
*ped	*	*	*	*
(>8cL 8B-	.	.	.	.
8c 8B-	.	.	.	.
*Xped	*	*	*	*
8c 8B-	.	.	.	.
8c 8B-	.	8fL	.	[
8cJ) 8B-	.	8gJ	.	.
!!LO:LB:g=original
=217	=217	=217	=217	=217
*ped	*	*	*	*
(>8FFL	.	16a-LL	.	.
.	.	16g	.	.
8c 8A- 8F 8C	.	16f	.	.
.	.	16dd-JJ	.	.
8c 8A- 8F 8C	.	4cc/)	.	.
8c 8A- 8F 8C	.	.	.	.
8c 8A- 8F 8C	.	4rb	.	.
*Xped	*	*	*	*
8cJ) 8A- 8F 8C	.	.	.	.
=218	=218	=218	=218	=218
*ped	*	*	*	*
(>8EEn	.	(>2g	.	.
4c 4B- 4G 4C	.	.	.	.
8cL 8C	.	.	.	.
8c 8C	.	8fL	.	.
*Xped	*	*	*	*
8cJ) 8C	.	8gJ	.	.
=219	=219	=219	=219	=219
*ped	*	*	*	*
(>8FF	.	16a-LL	.	.
.	.	16f	.	.
!	!	!LO:TUP:a	!	!
!	!	!LO:TX:t=P:problem:tuplet "3" bez ramki	!	!
4c 4A- 4C	.	24ee-	.	.
.	.	24dd-	.	.
.	.	24ccJJ	.	.
.	.	2cc)	.	.
8cL 8A- 8C	.	.	.	.
8c 8A- 8C	.	.	.	.
*Xped	*	*	*	*
8cJ) 8A- 8F	.	.	.	.
=220	=220	=220	=220	=220
*ped	*	*	*	*
(>8AA-L	.	(>4.cc	.	.
8c 8A- 8E-	.	.	.	.
8c 8A- 8E-	.	.	.	.
!	!	!LO:TX:a:t=rallent.	!	!
8c 8A- 8E-	.	16b-\LL	.	.
.	.	16a-JJ	.	.
8c 8A- 8E-	.	16g\LL	.	.
*Xped	*	*	*	*
.	.	16b-	.	.
8cJ) 8A- 8En	.	16a-	.	.
.	.	16gJJ	.	.
=221	=221	=221	=221	=221
*ped	*	*	*	*
(>8DD-L	.	8.gL	.	.
8d- 8A- 8F	.	.	.	.
.	.	16fJk	.	.
8d- 8A- 8F	.	[>2ff)	.	.
8f 8d- 8A- 8F	.	.	.	.
8f 8d- 8A- 8F	.	.	.	.
8fJ) 8d- 8A- 8F	.	.	.	.
!!LO:LB:g=original
=222	=222	=222	=222	=222
*^	*	*	*	*
(<8d-L	8f> 8A- 8F	.	4ff\]	.	.
8A-	8rEEyy	.	.	.	.
*Xped	*	*	*	*	*
8G-X	2rEEyy	.	4r	.	.
8A-	.	.	.	.	.
8G-	.	.	4r	.	.
8FJ	.	.	.	.	.
*v	*v	*	*	*	*
=223	=223	=223	=223	=223
8A-/L	.	2.rdd	.	.
8F	.	.	.	.
8E-	.	.	.	.
8F	.	.	.	.
8E-	.	.	.	.
8D-J)	.	.	.	.
=224	=224	=224	=224	=224
*^	*	*	*	*
*	*	*	*^	*	*
!	!	!	!LO:TX:b:t=poco_a_poco_:dur=6qs:ext=ud:problem:text with extention lines	!	!	!
8FL/	(<4.F\	.	(>8f/L	4.f\	.	.
8D-	.	.	8d-/	.	.	.
8C	.	.	8c/	.	.	.
8F	4.F\	.	8f/	4.f\	.	.
8C	.	.	8c/	.	.	.
8BB-J	.	.	8B-/J	.	.	.
=225	=225	=225	=225	=225	=225	=225
8FL/	4.F\	.	8f/L	4.f\	.	.
8BB-	.	.	8B-/	.	.	.
8AA-	.	.	8A-/	.	.	.
8F	4.F\	.	8f/	4.f\	.	.
8GG-X	.	.	8G-X/	.	.	.
8AA-J	.	.	8B-/J)	.	.	.
*v	*v	*	*	*	*	*
*	*	*v	*v	*	*
=226	=226	=226	=226	=226
!	!	!LO:TX:a:B:t=a tempo primo.	!	!
!	!	!LO:TX:b:t=cres _:problem:dynamics with extention lines	!	!LO:HP:t=cres:ext=ud
!	!	!	!	!LO:HP:t=cres:ext=ud
8.D-\L 8.DD-\)	.	(>24Bn<LL 24F<	.	<
.	.	24A-<	.	.
.	.	24Gn<	.	.
.	.	24A-<	.	.
.	.	24G<	.	.
(>16FFJk	.	.	.	.
.	.	24F<JJ	.	.
8.C\L) 8.CC\	.	24c<LL	.	.
.	.	24A-<	.	.
.	.	24G<	.	.
.	.	24A-<	.	.
.	.	24G<	.	.
(>16FFJk	.	.	.	.
.	.	24F<JJ	.	.
8.D-\L) 8.DD-\	.	24B<LL	.	.
.	.	24A-<	.	.
.	.	24G<	.	.
.	.	24A-<	.	.
.	.	24G<	.	.
(>16FFJk	.	.	.	.
.	.	24F<JJ	.	.
!!LO:LB:g=original
=227	=227	=227	=227	=227
8.C\L) 8.CC\	.	24c<LL	.	.
.	.	24A-<	.	.
.	.	24G<	.	.
.	.	24A-<	.	.
.	.	24G<	.	.
(>16FFJk	.	.	.	.
.	.	24F<JJ	.	.
8.C-X\L) 8.CC-X\	.	24d-LL	.	.
.	.	24A-<	.	.
.	.	24G-X<	.	.
.	.	24A-<	.	.
.	.	24G-<	.	.
(>16FFJk	.	.	.	.
.	.	24F<JJ	.	.
8.C-\L) 8.CC-\	.	24d-LL	.	.
.	.	24A-<	.	.
.	.	24G-<	.	.
.	.	24A-<	.	.
.	.	24G-<	.	.
(>16FFJk	.	.	.	.
.	.	24F<JJ	.	.
=228	=228	=228	=228	=228
*	*	*	*	*^
!	!	!LO:TX:t=P:problem:nie zawsze wyswietla sie tu crescendo; po usunieciu tego komentarza wyswietla sie tylko "cres."	!	!	!
4C-X\) 4CC-X\	.	16d-LL	.	.	<
.	.	16A-<	.	.	.
.	.	16G-X<	.	.	.
.	.	16F<JJ	.	[	.
8rBB	.	16A-<LL	.	.	.
.	.	16d-	.	.	.
16A-'>LL	.	16f	.	.	.
16A-'>JJ	.	16a-JJ	.	.	.
!LO:TX:t=P:problem:staccato nad 8a->'>L 8A-	!	!	!	!	!
8a->'>L 8A-'>	.	16dd-LL	.	.	.
.	.	16ff	.	.	.
8a->'>J 8A-'>	.	16aa-	.	.	.
.	.	16fffJJ	.	.	[
*	*	*	*	*v	*v
=229	=229	=229	=229	=229
4a->^>\ 4A-\	.	16eee-/LL	.	.
.	.	16ddd-	.	.
.	.	16aa-	.	.
.	.	16ffJJ	.	.
4rD	.	16ee-/LL	.	.
.	.	16dd-	.	.
.	.	16a-	.	.
.	.	16fJJ	.	.
\8.G-XL 8.GG-X\	.	16e-LL	.	.
.	.	16d-	.	.
.	.	16A-	.	.
!LO:TX:t=P:problem:brak poczatku luku	!	!	!	!
(>16FJk 16FF	.	16d-JJ	.	.
!!LO:LB:g=original
=230	=230	=230	=230	=230
!	!	!LO:TX:a:t=cres _:problem:dynamics with extention lines	!	!LO:HP:t=cres:ext=ud
!	!	!	!	!LO:HP:a:t=cres:ext=ud
8.F-X\L) 8.FF-X\	.	24dnLL	.	<
.	.	24c-X<	.	.
.	.	24B-<	.	.
.	.	24c-<	.	.
.	.	24B-<	.	.
(>16AA-Jk	.	.	.	.
.	.	24A-<JJ	.	.
8.E-\L) 8.EE-\	.	24e-LL	.	.
.	.	24c-<	.	.
.	.	24B-<	.	.
.	.	24c-<	.	.
.	.	24B-<	.	.
(>16AA-Jk	.	.	.	.
.	.	24A-<JJ	.	.
8.F-\L) 8.FF-\	.	24dLL	.	.
.	.	24c-<	.	.
.	.	24B-<	.	.
.	.	24c-<	.	.
.	.	24B-<	.	.
(>16AA-Jk	.	.	.	.
.	.	24A-<JJ	.	.
=231	=231	=231	=231	=231
*	*	*^	*	*
8.E-\L) 8.EE-\	.	24e-LL	4ryy	.	.
.	.	24c-X<	.	.	.
.	.	24B-<	.	.	.
.	.	24c-<	.	.	.
.	.	24B-<	.	.	.
(>16AA-Jk	.	.	.	.	.
.	.	24A-<JJ	.	.	.
!	!	!LO:TX:t=P:mixed beam:problem	!	!	!
8.Dn\L) 8.DDn\	.	24f-XLL\	4f-X/	.	.
.	.	24c-</	.	.	.
.	.	24B--</	.	.	.
.	.	24c-</	.	.	.
.	.	24B--</	.	.	.
(>16AA-Jk	.	.	.	.	.
.	.	24A-<JJ/	.	.	.
!	!	!LO:TX:t=P:mixed beam:problem	!	!	!
8.D\L) 8.DD\	.	24f-LL\	4f-/	.	.
.	.	24c-</	.	.	.
.	.	24B--</	.	.	.
.	.	24c-</	.	.	.
.	.	24B--</	.	.	.
(>16AA-Jk	.	.	.	.	.
.	.	24A-<JJ/	.	.	[
*	*	*v	*v	*	*
=232	=232	=232	=232	=232
*ped	*	*	*	*
4Dn\) 4DDn\	.	16enLL	.	.
.	.	16Bn	.	.
.	.	16An<	.	.
.	.	16G#X<JJ	.	.
8ryy	.	16B\LL	.	<
.	.	16e	.	.
*clefG2	*	*	*	*
16Bn'>\LL	.	16g#X	.	.
16B'>JJ	.	16bnJJ	.	.
8bn'>\L 8B'>\	.	16eenyLL	.	.
.	.	16gg#y	.	.
8b'>J 8B'>	.	16bbny	.	.
.	.	16bbbnyJJ	.	[[
!!LO:PB:g=original
=233	=233	=233	=233	=233
4b- 4B-	.	16ggg#XLL	.	.
.	.	16fff#X	.	.
.	.	16eeen	.	.
.	.	16bbnJJ	.	.
4rb	.	16gg#yLL	.	.
.	.	16ff#y	.	.
.	.	16eeny	.	.
!	!	!LO:TX:b:t=cres _:problem:dynamics with extention lines	!	!LO:HP:t=cres:ext=ud
!	!	!	!	!LO:HP:t=cres:ext=ud
.	.	16bnyJJ	.	<
*clefF4	*	*	*	*
(>8.DnL 8.DDn	.	16g#yLL	.	.
.	.	16eny	.	.
.	.	16Bny	.	.
16EnJk 16EEn	.	16cJJ)	.	.
=234	=234	=234	=234	=234
*	*	*Xtuplet	*	*
8.F\L) 8.FF\	.	(>24a-LL	.	.
.	.	24dn	.	.
.	.	24cn	.	.
.	.	24d	.	.
.	.	24c	.	.
(>16GGJk	.	.	.	.
.	.	24BnJJ	.	[
!	!	!LO:TX:b:t=sempre_più_animato_:dur=11q:ext=ud:problem:text with extention lines	!	!
8.En\L) 8.EEn\	.	24gLL	.	.
.	.	24en	.	.
.	.	24d	.	.
.	.	24e	.	.
.	.	24d	.	.
(>16GGJk	.	.	.	.
.	.	24cJJ	.	.
8.G\L) 8.GG\	.	24b-XLL	.	.
.	.	24e	.	.
.	.	24d	.	.
.	.	24e	.	.
.	.	24d	.	.
(>16AAnJk	.	.	.	.
.	.	24c#XJJ	.	.
=235	=235	=235	=235	=235
8.F#X\L) 8.FF#X\	.	24anLL	.	.
.	.	24f#X	.	.
.	.	24en	.	.
.	.	24f#	.	.
.	.	24e	.	.
(>16AAnJk	.	.	.	.
.	.	24dnJJ	.	.
8.An\L) 8.AA\	.	24ccLL	.	.
.	.	24f#	.	.
.	.	24e	.	.
.	.	24f#	.	.
.	.	24e	.	.
(>16BBnJk	.	.	.	.
.	.	24d#XJJ	.	.
8.G#X\L) 8.GG#X\	.	24bnLL	.	.
.	.	24g#X	.	.
.	.	24f#	.	.
.	.	24g#	.	.
.	.	24f#	.	.
16EnJk	.	.	.	.
.	.	24eJJ	.	.
!!LO:LB:g=original
=236	=236	=236	=236	=236
*ped	*	*	*	*
(>8.e--L 8.E--	.	24cc-XLL	.	.
.	.	24a-	.	.
.	.	24g-X	.	.
.	.	24a-	.	.
*Xped	*	*	*	*
.	.	24g-	.	.
16A-J) 16F	.	.	.	.
.	.	24fJJ	.	.
*ped	*	*	*	*
(>8.d-L 8.D-	.	24dd-LL	.	.
.	.	24a-	.	.
.	.	24g-	.	.
.	.	24a-	.	.
*Xped	*	*	*	*
.	.	24g-	.	.
16A-Jk 16F)	.	.	.	.
.	.	24fJJ	.	.
*ped	*	*	*	*
(>8.c-XL 8.C-X	.	24ee--LL	.	.
.	.	24a-	.	.
.	.	24g-	.	.
.	.	24a-	.	.
.	.	24g-	.	.
16A-Jk 16F)	.	.	.	.
*Xped	*	*	*	*
.	.	24fJJ	.	.
=237	=237	=237	=237	=237
*ped	*	*	*	*
(>8.f>L 8.F	.	24ddn/LL	.	.
.	.	24cc-X	.	.
.	.	24b-	.	.
.	.	24cc-	.	.
*Xped	*	*	*	*
.	.	24b-	.	.
16c-XJk) 16A-	.	.	.	.
.	.	24a-JJ	.	.
*ped	*	*	*	*
(>8.e->L 8.E-	.	24ee-/LL	.	.
.	.	24cc-	.	.
.	.	24b-	.	.
.	.	24cc-	.	.
*Xped	*	*	*	*
.	.	24b-	.	.
16c-Jk) 16A-	.	.	.	.
.	.	24a-JJ	.	.
*ped	*	*	*	*
(>8.dnL 8.Dny	.	24ff/LL	.	.
.	.	24cc-	.	.
.	.	24b-	.	.
.	.	24cc-	.	.
*Xped	*	*	*	*
.	.	24b-	.	.
16c-Jk) 16A-	.	.	.	.
.	.	24a-JJ)	.	.
*	*	*tuplet	*	*
=238	=238	=238	=238	=238
16DDn\LL	.	(>16Dn<LL	.	f
16EE-\	.	16E-<	.	.
16FF#X\	.	16F#X<	.	.
16GG\JJ	.	16G<JJ	.	.
16FF#\LL	.	16F#<LL	.	.
16GG\	.	16G<	.	.
16AAn\	.	16An<	.	.
16BB-\JJ	.	16B-<JJ	.	.
16AA\LL	.	16A<LL	.	.
16BB-\	.	16B-<	.	.
!	!	!LO:TX:b:t=cres _:problem:dynamics with extention lines	!	!LO:HP:t=cres:ext=ud
!	!	!	!	!LO:HP:t=cres:ext=ud
16C\	.	16c	.	<
16D-\JJ	.	16d-XJJ)	.	.
!!LO:LB:g=original
=239	=239	=239	=239	=239
16AAn\LL	.	(>16An<LL	.	.
16BB-	.	16B-<	.	.
16C	.	16c	.	.
16D-JJ	.	16d-JJ	.	.
16C\LL	.	16cLL	.	.
16D-	.	16d-	.	.
16E-	.	16e-	.	.
16F-XJJ	.	16f-XJJ	.	.
16E-\LL	.	16e-LL	.	.
16F-	.	16f-	.	.
16F#X	.	16f#X	.	.
16GJJ	.	16gJJ)	.	.
=240	=240	=240	=240	=240
16CLL	.	(>16cLL	.	.
16D-	.	16d-	.	.
16E-	.	16e-	.	.
16F-XJJ	.	16f-XJJ	.	.
16E-LL	.	16e-LL	.	.
16F-	.	16f-	.	.
16F#X	.	16f#X	.	.
16GJJ	.	16gJJ	.	.
16F#LL	.	16f#LL	.	.
16G	.	16g	.	.
16An	.	16an	.	.
16B-JJ	.	16b-JJ	.	.
=241	=241	=241	=241	=241
16AnLL	.	16an/LL	.	.
16B-	.	16b-	.	.
16c	.	16cc	.	.
16d-JJ	.	16dd-JJ	.	.
16c>LL	.	16cc/LL	.	.
16d->	.	16dd-	.	.
16e->	.	16ee-	.	.
16f->XJJ	.	16ff-XJJ	.	.
16e->LL	.	16ee-/LL	.	.
16f->	.	16ff-	.	.
16f#X>	.	16ff#X	.	.
16g>JJ	.	16ggJJ)	.	[
=242	=242	=242	=242	=242
*	*	*^	*	*
*Xtuplet	*	*	*	*	*
!	!	!	!LO:TX:B:b:t=forte assai.	!	!
!	!	!	!LO:TUP:a	!	!
12E-L 12EE-	.	2bb-	12b-L	.	.
12f 12F	.	.	12ee- 12dd-	.	.
12e-J 12E-	.	.	12ee-J 12dd-	.	.
*	*	*	*Xtuplet	*	*
12F\L 12FF\	.	.	12ee-L 12dd-	.	<
12G 12GG	.	.	12ee- 12dd-	.	.
12E-J 12EE-	.	.	12ee-J 12dd-	.	.
12A-\L 12AA-\	.	4ccc	12ccc 12ee-L 12cc	.	.
12C 12CC	.	.	12aa- 12ee- 12cc	.	.
12D-J 12DD-	.	.	12aa-J 12ee- 12cc	.	.
!!LO:LB:g=original
=243	=243	=243	=243	=243	=243
!LO:TX:t=P:problem:wyglada jakby luk zaczynal sie wczesniej	!	!	!	!	!
12E-L (<12EE-	.	4bb-	12aa-L 12ee- 12b-	.	.
12Dn 12DDn	.	.	12aa- 12ee- 12b-	.	.
12E-J 12EE-	.	.	12aa-J 12ee- 12b-	.	.
12EnL 12EEn	.	8.bb-L	12ggL 12dd- 12b-	.	.
12D#X 12DD#X	.	.	12gg 12dd- 12b-	.	.
12EJ 12EE	.	.	12ggJ 12cc	.	.
.	.	16cccJk	.	.	.
12FL 12FF	.	8.aa-L	12ffL 12cc	.	.
12E-X 12EE-X	.	.	12ff 12cc	.	.
12DnJ 12DDn)	.	.	12aa-J 12ff	.	.
.	.	16fffJk	.	.	[
=244	=244	=244	=244	=244	=244
*ped	*	*	*	*	*
12D-X/L 12DD-X/	.	8.bb-L	12aa-L 12ff 12b-	.	<
12d- 12D-	.	.	12aa- 12ff 12b-	.	.
*Xped	*	*	*	*	*
12cJ 12C	.	.	12aa- 12ffJ	.	.
.	.	16cccJk	.	.	.
12B-/L 12BB-/	.	12eee-L	12aa-L 12ff	.	.
12BB- 12BBB-	.	12ddd-	12aa- 12ff 12dd-	.	.
12CJ 12CC	.	12cccJ	12aa- 12ee-J	.	.
12D-/L 12DD-/	.	8.bb-L	12aa-L 12ff 12b-	.	.
12F 12FF	.	.	12aa- 12dd- 12b-	.	.
12E-J 12EE-	.	.	12ccc 12gg 12dd-J	.	.
.	.	16cccJk	.	.	.
*	*	*v	*v	*	*
=245	=245	=245	=245	=245
12AA-L (<12AAA-	.	(>12aa-L 12cc 12a-	.	.
12AAn 12AAAn	.	12ee- 12cc 12g-X	.	.
12BB-J 12BBB-	.	12ddnJ 12f	.	.
12BBnL 12BBBn	.	12ffL 12dd 12a-	.	.
12C 12CC	.	12een 12gn	.	.
12C#XJ 12CC#X	.	12ggnJ 12ee 12b-	.	.
12DnL 12DDn	.	12ff#XL 12an	.	.
12D#X 12DD#X	.	12aan 12ffn 12cc 12a	.	.
12EnJ 12EEn)	.	12aaJ) 12ee 12cc 12a	.	[
=246	=246	=246	=246	=246
*	*	*^	*	*
12FL 12FF	.	2ccc	12aanL 12ee-X 12cc	.	.
12g-X 12G-X	.	.	12aa 12ee- 12cc	.	.
12fJ 12F	.	.	12aaJ 12ee- 12cc	.	.
12Gn\L 12GGn\	.	.	12ffL 12ee-	.	.
12Any 12AAny	.	.	12ff 12ee-	.	.
12FJ 12FF	.	.	12ffJ 12ee-	.	.
*ped	*	*	*	*	*
12B-\L 12BB-\	.	4ddd-	12bb-L 12ff 12dd-	.	.
12D- (<12DD-	.	.	12bb- 12ff 12dd-	.	.
12E-J 12EE-	.	.	12bb-J 12ff#X 12dd-	.	.
!!LO:LB:g=original
=247	=247	=247	=247	=247	=247
12EnL 12EEn	.	[>4ccc	12bb-L 12gg 12cc	.	.
12D#X 12DD#X	.	.	12bb- 12gg 12cc	.	<
12EJ 12EE	.	.	12bb-J 12gg 12cc	.	.
12FL 12FF	.	8.cccL]	12aanL 12ee-X 12cc	.	.
12E 12EE	.	.	12aa 12ee- 12cc	.	.
12FJ 12FF	.	.	12aaJ 12ee- 12cc	.	.
.	.	16ddd-Jk	.	.	.
12G-XL 12GG-X	.	8.bb-L	12dd-L 12b-	.	.
12F 12FF	.	.	12dd- 12b-	.	.
12EJ 12EE	.	.	12bb-J 12gg-X	.	.
.	.	16ggg-XJk	.	.	.
=248	=248	=248	=248	=248	=248
*ped	*	*	*	*	*
!LO:TX:t=P:problem:luk zaczyna sie w gore	!	!	!	!	!
12E-XL 12EE-X)	.	8.cccL	12bb-L 12gg-X 12cc	.	.
12e- 12E-	.	.	12bb- 12gg- 12cc	.	.
*Xped	*	*	*	*	*
12d-J 12D-	.	.	12bb-J 12gg- 12dd-	.	.
.	.	16ddd-Jk	.	.	.
12c\L 12C\	.	12fffL	12bb-L 12gg-	.	.
(>12C 12CC	.	12eee-	12bb- 12gg- 12ee-	.	.
12D-J 12DD-	.	12ddd-J	12bb-J 12ff	.	.
12E-\L 12EE-\	.	8.cccL	12bb-L 12gg- 12cc	.	.
12En 12EEn	.	.	12bb- 12gg- 12cc	.	.
12FJ) 12FF	.	.	12aanJ 12ee- 12cc	.	.
.	.	16ddd-Jk	.	.	[
*	*	*v	*v	*	*
=249	=249	=249	=249	=249
*k[f#c#g#d#a#]	*	*k[f#c#g#d#a#]	*	*
*ped	*	*	*	*
!	!	!LO:TX:B:b:t=più forte.	!	!
12F#L 12FF#	.	8aa#'> 8cc#'> 8a#'>	.	.
12e 12A# 12F# 12E	.	.	.	.
.	.	16qqe#X/LL	.	.
.	.	16qqf#/JJ	.	.
.	.	4.f#TT>^<	.	.
12eJ 12A# 12F# 12E	.	.	.	.
12eL 12A# 12F# 12E	.	.	.	.
12e 12A# 12F# 12E	.	.	.	.
12eJ 12A# 12F# 12E	.	.	.	.
*	*	*rscale:8	*	*
*	*	*cue	*	*
12eL 12A# 12F# 12E	.	80enyL\	.	<
.	.	80f#	.	.
.	.	80g#	.	.
.	.	80a#	.	.
.	.	80b	.	.
.	.	80cc#	.	.
.	.	80dd#	.	.
12e 12A# 12F# 12E	.	.	.	.
.	.	80een	.	.
.	.	80ff#	.	.
.	.	80gg#	.	.
.	.	80aa#	.	.
.	.	80bb	.	.
.	.	80ccc#	.	.
*	*	*8va	*	*
.	.	80ddd#	.	.
12eJ 12A# 12F# 12E	.	.	.	.
.	.	80eee	.	.
.	.	80fff#	.	.
.	.	80ggg#	.	.
.	.	80aaa#	.	.
.	.	80bbb	.	.
*Xped	*	*	*	*
.	.	80cccc#J	.	[[
*	*	*Xcue	*	*
*	*	*rscale:1	*	*
!!LO:PB:g=original
=250	=250	=250	=250	=250
*	*	*tuplet	*	*
!	!	!LO:TUP:a	!	!
!	!	!LO:TX:t=P:problem:"6".	!	!
*ped	*	*	*	*
!LO:TX:t=P:mixed beam:problem	!	!	!	!
!	!	!	!	!LO:DY:rj
12FF#/L 12FFF#/	.	(>12dddd#L 12bbb 12ddd#	.	ff
12B\ 12F#\ 12D#\	.	24cccc#L 24aaa# 24ccc#	.	.
.	.	24bbb 24ggg# 24bb	.	.
12d#\J 12B\ 12F#\	.	24aaa# 24fff# 24aa#	.	.
.	.	24ggg#JJ) 24eee 24gg#	.	.
*	*	*X8va	*	*
*	*	*tuplet	*	*
!	!	!LO:TUP:a	!	!
12f#\L 12B\ 12F#\	.	(>12ff#L 12dd# 12f#	.	.
!	!	!LO:TX:a:t=loco.	!	!
12d# 12B 12F#	.	12ff# 12dd#	.	.
*Xped	*	*	*	*
12BJ 12F# 12D#	.	12ee#XJ) 12cc##X	.	.
*ped	*	*	*	*
!LO:TX:t=P:mixed beam:problem	!	!	!	!
!	!	!LO:TX:t=P:problem:dlugi tryl	!	!
12FF#/L 12FFF#/	.	4eenTT (<4cc#X	.	.
12A#\ 12F#\ 12C#\	.	.	.	.
*Xped	*	*	*	*
12e\J 12A#\ 12F#\	.	.	.	.
.	.	16qqdd#X/ 16qqb#X/LL	.	.
.	.	16qqee 16qqcc#/JJ)	.	.
=251	=251	=251	=251	=251
*ped	*	*	*	*
!LO:TX:t=P:mixed beam:problem	!	!	!	!
!	!	!LO:TUP:a	!	!
12GGn/L 12GGGn/	.	(>24ddnLL 24b	.	.
*	*	*8va	*	*
.	.	24bbbn 24ggg# 24bb	.	.
12B\ 12Gn\ 12Dn\	.	24aaan 24fff# 24aan	.	.
.	.	24ggg# 24eee 24gg#	.	.
12dn\J 12B\ 12G\	.	24fff# 24dddny 24ff#	.	.
.	.	24eeeJJ) 24cccn 24ee	.	.
*	*	*X8va	*	*
!	!	!LO:TX:a:t=loco	!	!
!	!	!LO:TUP:a	!	!
12gnL 12B 12Gn	.	12dddnyL 12bb 12ddny)	.	.
*Xped	*	*	*	*
12d 12B 12G	.	12dd 12b	.	.
12dJ 12D	.	12cc#J 12a#X	.	.
!	!	!LO:TX:t=P:problem:dlugi tryl	!	!
*ped	*	*	*	*
12DnyL 12DDny	.	4ccnTT (<4an	.	.
12cn 12F# 12D	.	.	.	.
*Xped	*	*	*	*
12a#J 12c 12F#	.	.	.	.
.	.	16qqb 16qqg#X/LL	.	.
.	.	16qqcc 16qqa/JJ)	.	.
=252	=252	=252	=252	=252
*	*	*Xtuplet	*	*
(>\12D#XL 12DD#X\	.	(>\12bL 12an\ 12f#\ 12B\	.	.
12E) 12EE	.	12g#) 12e 12B	.	.
(>12G#J 12GG#	.	(>12eeJ 12ddn 12b 12e	.	.
12An\L) 12AAn\	.	12cc#L) 12a 12e	.	.
(>12c# 12C#	.	(>12aany 12ggn 12ee 12a	.	.
12dnJ) 12Dn	.	12ff#J) 12ccn 12a	.	.
(>12d#XL 12D#X	.	(>12bbL 12aa 12ff# 12b	.	.
12e 12E)	.	12gg#X) 12ddn 12b	.	.
!LO:TX:t=P:problem:brak zakonczenia luku	!	!	!	!
(>12e#XJ 12c# 12G# 12E#X	.	[>12ccc#J 12bb) 12gg# 12cc#X	.	.
!!LO:LB:g=original
=253	=253	=253	=253	=253
*k[b-e-a-d-]	*	*k[b-e-a-d-]	*	*
!LO:TX:t=P:problem:gdy postawi sie zmiane znakow po pierwszych osemkach, znaki sie nie zmieniaja, wiec musi byc na pocztku, mimo iz w pierwodruku jest inaczej	!	!	!	!
12f#yL) 12c#y 12F#y	.	12ccc#L] 12aa#y 12eeny 12cc#y	.	.
12g 12e- 12B- 12G	.	(>12ddd- 12bb- 12ee 12dd-	.	.
12a-J 12e- 12A-	.	12cccnyJ 12ee 12ccny	.	<
*ped	*	*	*	*
12D-L 12DD-	.	12cccL 12ff 12cc	.	.
12fny 12d- 12B- 12A-	.	12bb-) 12ff 12b-	.	.
12fJ 12d- 12B- 12A-	.	(>12cccJ 12ff 12cc	.	.
12fL 12d- 12B- 12A-	.	12ddd-L 12ff 12dd-	.	.
12g 12d- 12B- 12A-	.	12ggg 12ddd- 12gg	.	.
*Xped	*	*	*	*
12a-J 12d- 12B- 12A-	.	12fffJ 12ddd- 12ff	.	[
=254	=254	=254	=254	=254
*	*	*^	*	*
*ped	*	*	*	*	*
*	*	*	*tuplet	*	*
!	!	!	!LO:TUP:a	!	!
!	!	!	!LO:TX:t=P:problem:"3" bez ramki	!	!
!	!	!	!LO:TX:B:b:t=sempre	!	!
8EE- 8EEE-	.	4rddddyy	12eee-) 12ccc 12ee-	.	.
.	.	.	12ee-\L 12e-\	.	.
16r	.	.	.	.	.
.	.	.	12ee-J 12e-	.	.
16E-KL 16EE-	.	.	.	.	.
*	*	*	*Xtuplet	*	*
8.A- 8.AA-	.	[>2ee-^>	12ccL 12a- 12e-	.	ff
.	.	.	12cc 12a- 12e-	.	.
.	.	.	12ccJ 12a- 12e-	.	.
*Xped	*	*	*	*	*
16B-k 16BB-	.	.	.	.	.
8.c 8.C	.	.	12ccL 12a- 12e-	.	.
.	.	.	12cc 12a-	.	.
.	.	.	12ccJ 12a-	.	.
16fJk 16F	.	.	.	.	.
=255	=255	=255	=255	=255	=255
*ped	*	*	*	*	*
8.e-L 8.E-	.	2ee-]	12ccL 12a-	.	.
.	.	.	12cc 12a-	.	.
.	.	.	12ccJ 12a- 12e-	.	.
16ck 16C	.	.	.	.	.
*Xped	*	*	*	*	*
8.B- 8.BB-	.	.	12ccL 12a- 12e-	.	.
.	.	.	12cc 12a- 12e-	.	<
.	.	.	12ccJ 12a- 12e-	.	.
16ck 16C	.	.	.	.	.
8.B- 8.BB-	.	(>8.ee-L	12ccL 12a- 12e-	.	.
.	.	.	12cc 12a- 12e-	.	.
!	!	!	!	!	!LO:DY:a
.	.	.	12cc 12a- 12e-J	.	.
16A-Jk 16AA-	.	16ffJk	.	.	[
!!LO:LB:g=original
=256	=256	=256	=256	=256	=256
*ped	*	*	*	*	*
!	!	!	!	!	!LO:HP:a
8EE- 8EEE-	.	4ff	12dd-L 12g 12f	.	>
.	.	.	12dd- 12g 12f	.	.
16r	.	.	.	.	.
.	.	.	12dd-J 12g 12f	.	.
16E-KL 16EE-	.	.	.	.	.
8.B- 8.BB-	.	[>2ee-	12dd- 12g 12e-L	.	]
.	.	.	12g 12e-	.	.
*Xped	*	*	*	*	*
.	.	.	12gJ 12e-	.	.
16ck 16C	.	.	.	.	.
8.d- 8.D-	.	.	12gL	.	.
.	.	.	12g	.	.
.	.	.	12gJ)	.	.
16fJk 16F	.	.	.	.	.
=257	=257	=257	=257	=257	=257
*ped	*	*	*	*	*
8.e-L 8.E-	.	4ee-]	12ccL 12g	.	.
.	.	.	12cc 12a-	.	<
.	.	.	12ccJ 12a- 12e-	.	.
16ck 16C	.	.	.	.	.
*Xped	*	*	*	*	*
8.B- 8.BB-	.	4ee-	12ccL 12a- 12e-	.	.
.	.	.	12cc 12a- 12e-	.	.
.	.	.	12ccJ 12a- 12e-	.	.
16ck 16C	.	.	.	.	.
8.B- 8.BB-	.	(>8.ee-L	12ccL 12a- 12e-	.	.
.	.	.	12cc 12a- 12e-	.	.
.	.	.	12ccJ 12a- 12f	.	.
!	!	!	!	!	!LO:DY:a
16A-Jk 16AA-	.	16ffJk	.	.	.
=258	=258	=258	=258	=258	=258
*ped	*	*	*	*	*
8EE- 8EEE-	.	4ff	12dd-L 12g 12f	.	.
.	.	.	12dd- 12g 12f	.	.
16r	.	.	.	.	.
.	.	.	12dd-J 12g 12f	.	[>
16E-KL 16EE-	.	.	.	.	.
*Xped	*	*	*	*	*
8.B- 8.BB-	.	[>2ee-	12dd-L 12g 12e-	.	.
.	.	.	12g 12e-	.	.
.	.	.	12gJ 12e-	.	.
16ck 16C	.	.	.	.	.
8.d- 8.D-	.	.	12gL	.	.
.	.	.	12g	.	.
.	.	.	12gJ	.	.
16fJk 16F	.	.	.	.	]
=259	=259	=259	=259	=259	=259
*ped	*	*	*	*	*
8.e-L 8.E-	.	2ee-])	12ccL 12g	.	<
.	.	.	12cc 12a-	.	.
.	.	.	12ccJ 12a- 12e-	.	.
16ck 16C	.	.	.	.	.
*Xped	*	*	*	*	*
8.B- 8.BB-	.	.	12ccL 12a- 12e-	.	.
.	.	.	12cc 12a- 12e-	.	.
.	.	.	12ccJ 12a- 12e-	.	.
16ck 16C	.	.	.	.	.
8.B- 8.BB-	.	(>8.ee-L	12ccL 12a- 12e-	.	.
.	.	.	12cc 12a- 12e-	.	.
.	.	.	12ccJ 12a- 12f	.	.
16A-Jk 16AA-	.	16ffJk	.	.	[
!!LO:LB:g=original
=260	=260	=260	=260	=260	=260
*	*	*	*	*	*^
*ped	*	*	*	*	*	*
8AA- 8AAA-	.	4gg-X	12ccL 12a- 12g-X	.	.	.
.	.	.	12cc 12a- 12g-	.	.	.
16r	.	.	.	.	.	.
.	.	.	12ccJ 12a- 12g-	.	<	.
16E-KL 16EE-	.	.	.	.	.	.
!	!	!	!	!	!	!LO:HP:a
8A- 8AA-	.	[>2gg-	12ccL 12a- 12g-	.	.	>
.	.	.	12cc 12a- 12g-	.	.	.
16r	.	.	.	.	.	.
.	.	.	12ccJ 12a- 12g-	.	.	.
*Xped	*	*	*	*	*	*
16dnk 16Dn	.	.	.	.	.	.
8e- 8E-	.	.	12ccL 12a- 12g-	.	.	.
.	.	.	12cc 12g-	.	.	.
16rD	.	.	.	.	.	.
.	.	.	12ccJ 12g-	.	.	.
16b-Jk 16B-	.	.	.	.	.	]
*	*	*	*	*	*v	*v
=261	=261	=261	=261	=261	=261
8.a-L 8.A-	.	4gg-X]	12ccL 12g-X	.	.
.	.	.	12cc 12g-	.	.
.	.	.	12ccJ 12g-	.	[
16fk 16F	.	.	.	.	.
8.e- 8.E-	.	4gg-	12ccL 12a- 12g-	.	.
.	.	.	12cc 12a- 12g-	.	.
.	.	.	12ccJ 12a- 12g-	.	.
16fk 16F	.	.	.	.	.
8.e- 8.E-	.	8.gg-L	12dd-L 12a- 12g-	.	.
.	.	.	12dd- 12a- 12g-	.	.
.	.	.	12dd-J 12a- 12f	.	.
16d-Jk 16D-	.	16ffJk)	.	.	.
=262	=262	=262	=262	=262	=262
*	*	*	*	*	*^
.	.	8qf/	.	.	.	.
!	!	!LO:TX:t=P:problem:pionowy luk miedzy a- i aa-	!	!	!	!
*ped	*	*	*	*	*	*
8c-XL 8C-	.	(>4aa-/	12ee-L 12a-	.	.	.
.	.	.	12ee- 12a-	.	.	.
16r	.	.	.	.	.	.
.	.	.	12ee-J 12a-	.	<	.
*Xped	*	*	*	*	*	*
16C- 16CC-y	.	.	.	.	.	.
!	!	!	!	!	!	!LO:HP:a
*ped	*	*	*	*	*	*
8BB- 8BBB-	.	2aa-	12ddnL 12a-	.	.	>
.	.	.	12dd 12a-	.	.	.
16rD	.	.	.	.	.	.
.	.	.	12ddJ 12a-	.	.	.
16Fk 16FF	.	.	.	.	.	.
8B- 8BB-	.	.	12ddL 12a-	.	.	.
.	.	.	12dd 12a-	.	.	]
*clefG2	*	*	*	*	*	*
16rb	.	.	.	.	.	.
.	.	.	12ddJ 12a-	.	.	.
*Xped	*	*	*	*	*	*
16ccnJk 16cn	.	.	.	.	.	.
*	*	*	*	*	*v	*v
!!LO:LB:g=original
=263	=263	=263	=263	=263	=263
8.b-L 8.B-	.	4aa-)	12ddnL 12a-	.	.
.	.	.	12dd 12a-	.	.
.	.	.	12ddJ 12a-	.	[
16gk 16G	.	.	.	.	.
*clefF4	*	*	*	*	*
8.f 8.F	.	(>4aa-	12ddL 12b- 12a-	.	.
.	.	.	12dd 12b- 12a-	.	.
.	.	.	12ddJ 12b- 12a-	.	.
16gk 16G	.	.	.	.	.
8.f 8.F	.	8.aa-L	12ee-L 12b- 12a-	.	.
.	.	.	12ee- 12b- 12a-	.	.
.	.	.	12ee-J 12b- 12g	.	.
16e-Jk 16E-	.	16ggJk)	.	.	.
=264	=264	=264	=264	=264	=264
*ped	*	*	*	*	*
8.d-L 8.D-	.	(>8.ffL	12b-L 12g	.	.
.	.	.	12b- 12g	.	.
.	.	.	12b-J 12g	.	.
*Xped	*	*	*	*	*
16e-Jk 16E-	.	16ggJk	.	.	.
*ped	*	*	*	*	*
8.d-L 8.D-	.	8.ffL	12b-L 12g	.	.
.	.	.	12b- 12g	.	.
.	.	.	12b-J 12g	.	.
*Xped	*	*	*	*	*
16D-Jk 16DD-	.	16ee-Jk	.	.	.
*ped	*	*	*	*	*
8.C\L 8.CC\	.	8.aa-L	12ee-L 12a-	.	.
.	.	.	12ee- 12a-	.	.
.	.	.	12a-J 12e-	.	.
*Xped	*	*	*	*	*
16cJk 16C	.	16ee-Jk)	.	.	.
=265	=265	=265	=265	=265	=265
*ped	*	*	*	*	*
8.c\L 8.C\	.	(>8.dd-L	12a-L 12f	.	.
.	.	.	12a- 12f	.	.
.	.	.	12a-J 12f	.	.
*Xped	*	*	*	*	*
16CJk 16CC	.	16ee-Jk	.	.	.
*ped	*	*	*	*	*
8.BB-/L 8.BBB-/	.	8.dd-L	12a-L 12en	.	.
.	.	.	12g 12e	.	.
.	.	.	12gJ 12e	.	.
*Xped	*	*	*	*	*
16B-Jk 16BB-	.	16ccJk	.	.	.
*ped	*	*	*	*	*
8.A-/L 8.AA-/	.	8.ffL	12ccL 12f	.	.
.	.	.	12cc 12f	.	.
.	.	.	12fJ 12c	.	.
*Xped	*	*	*	*	*
16AA-Jk 16AAA-	.	16ccJk)	.	.	.
!!LO:PB:g=original
=266	=266	=266	=266	=266	=266
*ped	*	*	*	*	*
8.D-/L 8.DD-/	.	(>8.ccL	12fL 12c	.	.
.	.	.	12f 12c	.	.
.	.	.	12fJ 12B-	.	<
*Xped	*	*	*	*	*
16F/Jk (</16FF	.	16b-Jk)	.	.	.
*ped	*	*	*	*	*
8.AAnL 8.AAAn)	.	(>8.dd-L	12fL 12d-	.	.
.	.	.	12f 12d-	.	.
.	.	.	12fJ 12c	.	.
*Xped	*	*	*	*	*
16FJk (<16FF	.	16ccJk)	.	.	.
*ped	*	*	*	*	*
8.BB-L 8.BBB-)	.	4rdddyy	(>\12ee-L 12f\ 12e-\	.	.
.	.	.	12dd-\ 12f\ 12d-\	.	.
.	.	.	12a-\J) 12f\ 12d-\	.	.
*Xped	*	*	*	*	*
16FJk (<16FF	.	.	.	.	[
=267	=267	=267	=267	=267	=267
*ped	*	*	*	*	*
8EE-L 8EEE-)	.	(>2cc	12a-L 12e- 12c	.	.
.	.	.	12a- 12e- 12c	.	.
16rD	.	.	.	.	.
.	.	.	12a-J 12e- 12c	.	.
16E-Jk (<16EE-	.	.	.	.	.
*Xped	*	*	*	*	*
8.FL 8.FF)	.	.	12a-L 12dn	.	.
.	.	.	12a- 12d	.	.
.	.	.	12a-J 12d	.	>
16E-Jk (<16EE-	.	.	.	.	.
*ped	*	*	*	*	*
8.GL 8.GG)	.	8.ccL	12e-L 12d-X	.	.
.	.	.	12e- 12d-	.	.
.	.	.	12e-J 12d-	.	.
*Xped	*	*	*	*	*
16E-Jk (<16EE-	.	16b-Jk)	.	.	]
=268	=268	=268	=268	=268	=268
*ped	*	*	*	*	*
8AA- 8AAA-)	.	8a-L) 8e- 8c	4ryy	.	.
16rD	.	16rb	.	.	.
16E-KL 16EE-	.	(>16ee-Jk 16e-	.	.	.
*ped	*	*	*	*	*
*	*	*	*tuplet	*	*
!	!	!	!LO:TX:B:b:t=accel&colon;	!	!
!	!	!	!LO:TUP:a	!	!
8.A- 8.AA-	.	8.aa-/L	(>12a-L	.	.
.	.	.	12a-	.	.
.	.	.	12b-J)	.	.
*Xped	*	*	*	*	*
*	*	*	*Xtuplet	*	*
16B-k 16BB-	.	16bb-J	.	.	.
*ped	*	*	*	*	*
8.c 8.C	.	8.ccc/L	12ccL	.	.
.	.	.	12cc	.	.
.	.	.	12ffJ	.	.
*Xped	*	*	*	*	*
16fJk 16F	.	16fffJ	.	.	.
=269	=269	=269	=269	=269	=269
*ped	*	*	*	*	*
*	*	*8va	*8va	*	*
8.e-L 8.E-	.	8.eee-L)	12ee-L	.	.
.	.	.	12ff	.	.
.	.	.	12ggJ	.	.
*Xped	*	*	*	*	*
16gJk 16G	.	(>16gggJ	.	.	.
*clefG2	*	*	*	*	*
*ped	*	*	*	*	*
8.a-L 8.A-	.	8.aaa-L	12aa-L	.	.
.	.	.	12aa-	.	.
.	.	.	12bb-J	.	.
*Xped	*	*	*	*	*
16b-Jk 16B-	.	16bbb-J	.	.	.
*ped	*	*	*	*	*
8.ccL 8.c	.	8.ccccL	12cccL	.	.
.	.	.	12ccc	.	.
.	.	.	12fffJ	.	.
*Xped	*	*	*	*	*
16ffJk 16f	.	16ffffJk	.	.	.
!!LO:LB:g=original
=270	=270	=270	=270	=270	=270
*ped	*	*	*	*	*
8.ee-L 8.e-	.	8.eeee-L	12eee-L	.	.
.	.	.	12eee-	.	.
.	.	.	12cccJ	.	.
*Xped	*	*	*	*	*
16ccJk 16c	.	16ccccJ	.	.	.
*ped	*	*	*	*	*
8.b-L 8.B-	.	8.bbb-L	12bb-L	.	.
.	.	.	12bb-	.	.
.	.	.	12cccJ	.	.
*Xped	*	*	*	*	*
16ccJk 16c	.	16ccccJ	.	.	.
*ped	*	*	*	*	*
8.b-L 8.B-	.	8.bbb-L	12bb-L	.	.
.	.	.	12bb-	.	.
.	.	.	12aa-J	.	.
*Xped	*	*	*	*	*
16a-Jk 16A-	.	16aaa-J	.	.	.
*clefF4	*	*	*	*	*
=271	=271	=271	=271	=271	=271
*ped	*	*	*	*	*
8.fL 8.F	.	8.fffL	12ffL	.	.
.	.	.	12ff	.	.
.	.	.	12ee-J	.	.
16e-Jk 16E-	.	16eee-J	.	.	.
*	*	*X8va	*X8va	*	*
*ped	*	*	*	*	*
!	!	!LO:TX:a:t=loco.	!	!	!
8.cL 8.C	.	8.cccL	12ccL	.	.
.	.	.	12cc	.	.
.	.	.	12a-J	.	.
*Xped	*	*	*	*	*
16A-Jk 16AA-	.	16aaJk-	.	.	.
*ped	*	*	*	*	*
!	!	!	!LO:TX:t=P:mixed beam:problem	!	!
8F\L 8FF\	.	8ffL	12f\L	.	.
.	.	.	12f\	.	.
16rD	.	16rdd	.	.	.
.	.	.	12C</J	.	.
*Xped	*	*	*	*	*
16CCJk 16CCC	.	16cJk)	.	.	.
=272	=272	=272	=272	=272	=272
*ped	*	*	*	*	*
8EE-/ 8EEE-/	.	8e-^>) 8E-<	8ryy	.	fz
8r	.	16rb	8ryy	.	<
.	.	(>16gL	.	.	.
8.d-L 8.B- 8.E-	.	8.b-	12g\L	.	.
.	.	.	12g	.	.
.	.	.	12gJ	.	.
*Xped	*	*	*	*	*
16d-k 16B- 16E-	.	16cck	.	.	.
*ped	*	*	*	*	*
8.d- 8.B- 8.E-	.	8.dd-	12g\L	.	.
.	.	.	12g	.	.
.	.	.	12gJ	.	.
*Xped	*	*	*	*	*
16d-Jk 16E-	.	16ffJk	.	.	[
=273	=273	=273	=273	=273	=273
*ped	*	*	*	*	*
8.cL 8.E-	.	8.ee-L	12a-L	.	>
.	.	.	12e-	.	.
.	.	.	12e-J	.	.
*Xped	*	*	*	*	*
16ck 16E-	.	16cck	.	.	.
*ped	*	*	*	*	*
8.c 8.E-	.	8.b-	12e-L	.	.
.	.	.	12e-	.	.
.	.	.	12e-J	.	.
16ck 16E-	.	16cck	.	.	.
8.c 8.E-	.	8.b-	12e-L	.	.
.	.	.	12e-	.	.
.	.	.	12e-J	.	.
*Xped	*	*	*	*	*
16cJk 16E-	.	16a-J)	.	.	]
!!LO:LB:g=original
=274	=274	=274	=274	=274	=274
*ped	*	*	*	*	*
!	!	!	!	!	!LO:DY:rj
8EE-/ 8EEE-/	.	8e-^> 8E-<	4ryy	.	fz
8r	.	(>16rb	.	.	<
.	.	16g/KL	.	.	.
8.d- 8.B- 8.E-L	.	8.b-	12gL	.	.
.	.	.	12g	.	.
.	.	.	12gJ	.	.
*Xped	*	*	*	*	*
16d-k 16B- 16E-	.	16cck	.	.	.
*ped	*	*	*	*	*
8.d- 8.B- 8.E-	.	8.dd-	12gL	.	.
.	.	.	12g	.	.
.	.	.	12gJ	.	.
*Xped	*	*	*	*	*
16d-Jk 16E-	.	16ffJk	.	.	[
=275	=275	=275	=275	=275	=275
*ped	*	*	*	*	*
8.cL 8.E-	.	8.ee-L	12a-L	.	>
.	.	.	12e-	.	.
.	.	.	12e-J	.	.
16ck 16E-	.	16cck	.	.	.
8.c 8.E-	.	8.b-	12e-L	.	.
.	.	.	12e-	.	.
.	.	.	12e-J	.	.
16ck 16E-	.	16cck	.	.	.
8.c 8.E-	.	8.b-	12e-L	.	.
.	.	.	12e-	.	.
.	.	.	12e-J	.	.
16cJk 16E-	.	16a-J)	.	.	]
=276	=276	=276	=276	=276	=276
*ped	*	*	*	*	*
8EE-/ 8EEE-/	.	8e-^> 8E-<	4ryy	.	fz
8rD	.	16r	.	.	<
.	.	(>16gKL	.	.	.
8.d-L 8.E-	.	8.b-	12gL	.	.
.	.	.	12g	.	.
.	.	.	12gJ	.	.
16d-k 16E-	.	16cck	.	.	.
8.d- 8.E-	.	8.dd-	12gL	.	.
.	.	.	12g	.	.
.	.	.	12gJ	.	.
16d-Jk 16E-	.	16ffJk	.	.	.
=277	=277	=277	=277	=277	=277
*	*	*	*	*	*^
8.d-L 8.E-	.	8.ee-L	12gL	.	.	.
.	.	.	12g	.	[	.
!	!	!	!LO:TX:b:t=dim _:problem:dynamics with extention lines	!	!LO:HP:t=dim:ext=ud	!
!	!	!	!	!	!LO:HP:t=dim:ext=ud	!
.	.	.	12gJ	.	>	.
16d-k 16E-	.	16cck	.	.	.	.
8.d- 8.E-	.	8.b-	12gL	.	.	.
.	.	.	12g	.	.	.
.	.	.	12gJ	.	.	.
16d-k 16E-	.	16cck	.	.	.	.
*Xped	*	*	*	*	*	*
!	!	!	!	!	!	!LO:HP:a
!	!	!	!LO:TX:t=P:mixed beam:problem	!	!	!
8.d- 8.E-	.	8.b-	12g\L	.	.	<
.	.	.	12g\	.	.	.
.	.	.	12c</J	.	.	.
*ped	*	*	*	*	*	*
16E-Jk 16AA-	.	16a-Jk	.	.	.	[
*	*	*	*	*	*v	*v
!!LO:LB:g=original
=278	=278	=278	=278	=278	=278
8E-\L 8AA-\	.	8ccL	12cL	.	.
.	.	.	12c	.	.
16r	.	16rdd	.	.	.
.	.	.	12cJ	.	.
16E-k 16AA-	.	16a-k	.	.	.
8E- 8AA-	.	8f	12cL	.	.
.	.	.	12c	.	.
16r	.	16rdd	.	.	.
.	.	.	12cJ	.	.
*Xped	*	*	*	*	*
16E-k 16AA-	.	16gk	.	.	.
8E- 8AA-	.	8f	12cL	.	.
.	.	.	12c	.	.
16r	.	16rdd	.	.	.
.	.	.	12cJ	.	.
*ped	*	*	*	*	*
16E-Jk 16AA-	.	16e-Jk	.	.	.
=279	=279	=279	=279	=279	=279
8E-\L 8AA-\	.	8a-L	12cL	.	.
.	.	.	12c	.	.
16r	.	16rdd	.	.	.
.	.	.	12cJ	.	.
*Xped	*	*	*	*	*
16E-k 16AA-	.	16fk	.	.	.
8E- 8AA-	.	8e-	12cL	.	.
.	.	.	12c	.	.
16r	.	16rdd	.	.	.
.	.	.	12cJ	.	.
16E-k 16AA-	.	16fk	.	.	.
*ped	*	*	*	*	*
!	!	!	!LO:TX:t=P:mixed beam:problem	!	!
8E- 8AA-	.	8e-	12c\L	.	.
.	.	.	12c\	.	.
16r	.	16rdd	.	.	.
.	.	.	12E-</J	.	.
16E-Jk 16AA-	.	16A-Jk	.	.	.
*	*	*v	*v	*	*
=280	=280	=280	=280	=280
8E-\L 8AA-\	.	12c<L 12A-<	.	.
.	.	12c<	.	.
16rBB	.	.	.	.
.	.	12c<J 12G<	.	.
*Xped	*	*	*	*
!LO:S:s=2:note:problem:note-level slur	!	!	!	!
16E-Jk (>16EE-	.	.	.	.
*ped	*	*	*	*
!LO:S:s=2:note:problem:note-level slur	!	!	!	!
8E-\L 8AA-\)	.	12c<L 12A-<	.	.
.	.	12c<	.	.
16rBB	.	.	.	.
.	.	12c<J 12G<	.	.
*Xped	*	*	*	*
!LO:S:s=2:note:problem:note-level slur	!	!	!	!
16E-Jk (>16EE-	.	.	.	.
!LO:S:s=2:note:problem:note-level slur	!	!	!	!
*ped	*	*	*	*
8E-\L 8AA-\)	.	12c<L 12A-<	.	.
.	.	12c<	.	.
16rBB	.	.	.	.
.	.	12c<J 12G<	.	.
*Xped	*	*	*	*
!LO:S:s=2:note:problem:note-level slur	!	!	!	!
16E-Jk (>16EE-	.	.	.	.
=281	=281	=281	=281	=281
!LO:S:s=2:note:problem:note-level slur	!	!	!	!
*ped	*	*	*	*
8E-\L 8AA-\)	.	12c<L 12A-<	.	.
.	.	12c<	.	.
16rBB	.	.	.	.
.	.	12c<J 12G<	.	.
*Xped	*	*	*	*
!LO:S:s=2:note:problem:note-level slur	!	!	!	!
16E-Jk (>16EE-	.	.	.	.
!LO:S:s=2:note:problem:note-level slur	!	!	!	!
*ped	*	*	*	*
8E-\L 8AA-\)	.	12c<L 12A-<	.	.
.	.	12c<	.	.
16rBB	.	.	.	.
.	.	12c<J 12G<	.	.
*Xped	*	*	*	*
!LO:S:s=2:note:problem:note-level slur	!	!	!	!
16E-Jk (>16EE-	.	.	.	.
!LO:S:s=2:note:problem:note-level slur	!	!	!	!
*ped	*	*	*	*
8E-\L 8AA-\)	.	12c<L 12A-<	.	.
.	.	12c<	.	.
16rBB	.	.	.	.
.	.	12c<J 12G<	.	.
*Xped	*	*	*	*
!LO:S:s=2:note:problem:note-level slur	!	!	!	!
16E-Jk (>16EE-	.	.	.	]
!!LO:LB:g=original
=282	=282	=282	=282	=282
*^	*	*	*	*
!	!	!	!LO:TX:B:b:t=ritenuto.	!	!LO:DY:b=2
*	*ped	*	*	*	*
2.ryy	2.AA-TT<\)	.	2.c</ 2.G-X</	.	pp
*	*Xped	*	*	*	*
.	.	.	.	.	.
=283	=283	=283	=283	=283	=283
*	*	*	*^	*	*
*ped	*	*	*	*	*	*
!	!LO:N:vis=2	!	!	!	!	!
4F-X	8AA-TTT<	.	2.d-	2F-X<	.	.
.	4.ryy	.	.	.	.	.
*Xped	*	*	*	*	*	*
2B-	.	.	.	.	.	.
*ped	*	*	*	*	*	*
.	4GGtt<	.	.	4E-<\	.	.
.	.	.	.	.	.	.
.	16qqFF#XTTT/LL	.	.	.	.	.
*Xped	*	*	*	*	*	*
.	16qqGGTTT/JJ	.	.	.	.	.
.	.	.	.	.	.	.
*	*	*	*v	*v	*	*
=284	=284	=284	=284	=284	=284
*ped	*	*	*	*	*
4A-/	2.AA-TT<	.	2.c 2.E-<	.	.
2G-X/	.	.	.	.	.
*Xped	*	*	*	*	*
.	.	.	.	.	.
=285	=285	=285	=285	=285	=285
*	*	*	*^	*	*
*ped	*	*	*	*	*	*
!	!LO:N:vis=2	!	!	!	!	!
4F-X	8AA-TTT<	.	2.d-	2F-X<	.	.
.	4.ryy	.	.	.	.	.
*Xped	*	*	*	*	*	*
2B-	.	.	.	.	.	.
*ped	*	*	*	*	*	*
.	4GGtt<	.	.	4E-<\	.	.
*Xped	*	*	*	*	*	*
.	16qqFF#Xttt/LL	.	.	.	.	.
.	16qqGGttt/JJ	.	.	.	.	.
*	*	*	*v	*v	*	*
*v	*v	*	*	*	*
=286	=286	=286	=286	=286
4AA-\	.	4c/) 4A-</ 4E-</	.	.
4rGG	.	4rg	.	.
4rGG	.	4rg	.	.
=287	=287	=287	=287	=287
*ped	*	*	*	*
4AAA-\	.	4c</ 4E-</	.	.
4rGG	.	4rg	.	.
4rGG;>	.	4rg;>	.	.
=288	=288	=288	=288	=288
!	!	!	!	!LO:DY:rj
!	!	!LO:N:n=1:vis=2	!	!
2.cc> 2.a-> 2.e-> 2.c	.	2.aaa-\;> 2.aa-\	.	ff
*Xped	*	*	*	*
!	!	!LO:TX:B:a:t=Fin.	!	!
.	.	.	.	.
!!LO:PB:g=original
==	==	==	==	==
*-	*-	*-	*-	*-
!!title: @{OTL}; @{OPS} @{ONM} publisher: @{PPR}
!!!system-decoration: {(s1,s2)}
!!!RDF**kern: > = above
!!!RDF**kern: < = below
!!!RDF**dynam: > = "dim.", fontstyle = "normal"
!!!RDF**dynam: < = "cres.", fontstyle = "normal"
!!!RDF**kern: N = linked
!!!ENC: Jędrzej Mróz
!!!END: 2019-04-29
!!!EED: Mateusz Mrugas
!!!EST: revision finished: 2019-05-14
!!!EED: Mateusz Mrugas
!!!EST: revision finished 2: 2020-03-30
